; %_N_23_MPFo TESTOVACI PGM, NEPOUZIVAT!!!
; SG202060P00002
; B01
; PALETA 1
; GIBBSCAM VERSION: 22.0.30 64 BIT
; FORMAT: GROB G350 SIEMENS 840D [SCHR-PALETA1] PD475288.140B.10.POST
; MDD: GROB G350 [SCHR-FIXTURE] HMILL5A.MDD REV: 58
; 11.02.2022 AT 9:15
EXTERN DIRA_MERENI(REAL , REAL , REAL , REAL , REAL ,REAL , STRING[16], INT)
DEF BOOL LADENI=0 ;  0 ZAPINA OPLACH
DEF INT CHYBA
DEF STRING[64] HODNOTY

; --- TOOL LIST ---
; T1 - SECO SQUARE D50
; T2 - SANDVIK D80
; T3 - VRTAK PLATKOVY D32 PT00988
; T4 - VHM VRTAK D6.6 PT00326
; T5 - VHM VRTAK D5.56 PT00391
; T6 - VHM VRTAK D4.65 PT00384
; T7 - VHM VRTAK D3.5 PT00291
; T8 - ODHROT D3/90ST PT00155
; T9 - HM FREZA D16-4Z PT00068
; T10 - HM FREZA D8-3Z PT00046
; T11 - HM FREZA D6-3Z PT00037
; T12 - ODHROTOVAC D6/90ST PT00157
; T13 - FR6 HRUB PT00087
; T14 - ZAVITNIK M5 TVARECI PT00460
; T15 - ZAVITNIK M6 TVARECI PT461 PT462
; T16 - FREZA SECO SQUARE D25
; T17 - FREZA 8 HRUB PT00091

; --- WFO LIST ---
;  G54 = X0. Y0. Z0.
;  G55 = X0. Y0. Z0.

G_RESET
FAST_TOOLCHANGE=1

KONTROLA1
CLAMP_01_00_02

IF O_PROG_READY==1 GOTOF _PROGRAMMOK

G451
CFTCP

G0 G17 G40 G54 G90 G94 G710
M=QU(91) M=QU(93); ODSAVANIE+DOPRAVNIK TRIESOK

G_BACK_TUNNEL
M11
M21
SUPA X=X_HOMEPOS Y=Y_HOMEPOS A=A_HOMEPOS B=B_HOMEPOS
M1
;TEST_TOOL_NR


IF $P_SEARCH==1 GOTOF WITHOUT_ZP

;GOTOF SONDOVANI_OP10
;GOTOF SONDOVANI_OP20

IF (DWI_PARTTYPE_WORKAREA==1) GOTOF WITHOUT_ZP

; OP20  - SONDA OTVOR X,Y
; SONDA
; CS#6 - OP20 SONDA
; ZVERAK2
N110 G17 G40 G94 G710
T="TOUCH_PROBE" S100 F1000
M6
T3
;------------ G55 X,Y: MERENI OTVORU -----------------------------------
G17 G55 G90
CYCLE800(0,"TC_GROB",200000,54,0,0,0,90.,-45.,0,0,0,0,1,0,0)
G0 X0. Y0.
X0. Y0. Z50 D1
STOPRE
M38 ; pustit sondu
G1 MEAS=1 Z=-7 F1500
IF $AC_MEA[1]==1 GOTOF BOURACKA
ENDIF
; cyklus mereni DIRY X0,Y0, ponoreni 7mm, prumer 33.7 +0.08 +0.03mm, jemne
CYCLE977(101,2,,1,33.7,,,6,2,0,1,1,,,1,"",,0,1.01,1.01,-1.01,0.34,1,0,,1,1)
G0 Z100.

; ODCHYLKA OD STREDU
R21=SQRT(POT(_OVR[17])+POT(_OVR[18]))

;zapis do souboru
HODNOTY="X="<<_OVR[17]<<"   Y="<<_OVR[18]<<"   ABS:"<<R21
WRITE(CHYBA,"OVRS_SG202060", HODNOTY)

; kdyz je odchylka vetsi nez
IF (R21>0.6)
MSG("STRED MIMO TOLERANCE, DELTA="<<R21) ; zprava operatorovi
;M0 ; mereni mimo rozsah, zkontroluj v R21 
ENDIF

CYCLE800()
G_BACK_TUNNEL
M1

WITHOUT_ZP:

CYCLE832(0.1,_ROUGH,1)

;
; OP10 VRTANI PLATEK
; VRTAK PLATKOVY D32 PT00988
;
N3; VRTAK PLATKOVY D32 PT00988
G17 G40 G94 G710
T3
M6
T4
G54 G90 F230. S4500 M3
CYCLE800(0,"TC_GROB",200000,54,0,0,0,90.,-135.,-180.,0,0,0,1,0,0)
M10
M20
IF LADENI==0
VODA
ENDIF
G0 X0. Y0.
X0. Y0. Z61.213 D1
M7
Z15.
; RETRACTION PLANE RTP = 15.
; REFERENCE PLANE RFP = 0
; SAFETY CLEARANCE SDIS = 3.
; DRILLING DEPTH PLANE DP = -15.
MCALL CYCLE81(15.,0,3.,-15.,,,0,0,0)
X0. Y0.
MCALL
G0 Z15.
Z61.213
M9
M11
M21
CYCLE800()
G_BACK_TUNNEL
M5
M1

;
; OP10 PREDVRTANI ROHU 6.6
; VHM VRTAK D6.6 PT00326
;
N4; VHM VRTAK D6.6 PT00326
G17 G40 G94 G710
T4
M6
T16
G54 G90 F450. S4500 M3
G0 X158.73 Y-221.13
CYCLE800(0,"TC_GROB",200000,54,0,0,0,90.,-135.,-180.,0,0,0,1,0,0)
IF LADENI==0
VODA
ENDIF
X-21.353 Y-33.046 Z30.267 D1
M8
G0 Z15.
; RETRACTION PLANE RTP = 15.
; REFERENCE PLANE RFP = 0
; SAFETY CLEARANCE SDIS = 2.
; DRILLING DEPTH PLANE DP = -10.5
; 1ST PECK DEPTH FDPR = 6.5
; PECK DEGRESSION AMOUNT DAM = 0
; DWELL TIME AT BOTTOM DTB = 0
; FEED RATE FACTOR FRF = 1.
; DEEP HOLE CYCLE VARI = 1
MCALL CYCLE83(15.,0,2.,-10.5,,,6.5,0,0,,1,1,0,,,,,0,0,0)
X-21.353 Y-33.046
X21.353
Y33.046
X-21.353
MCALL
G0 Z15.
;
; OP10 VRTANI 6.6
; VHM VRTAK D6.6 PT00326
;
G90 F450.
G0 X-33. Y-34.5
; RETRACTION PLANE RTP = 15.
; REFERENCE PLANE RFP = 0
; SAFETY CLEARANCE SDIS = 2.
; DRILLING DEPTH PLANE DP = -14.
; 1ST PECK DEPTH FDPR = 7.
; PECK DEGRESSION AMOUNT DAM = 0
; DWELL TIME AT BOTTOM DTB = 0
; FEED RATE FACTOR FRF = 1.
; DEEP HOLE CYCLE VARI = 1
MCALL CYCLE83(15.,0,2.,-14.,,,7.,0,0,,1,1,0,,,,,0,0,0)
X-33. Y-34.5
X33.
Y34.5
X-33.
MCALL
G0 Z15.
Z28.812
M9
CYCLE800()
G_BACK_TUNNEL
M5
M1

;
; OP20 DOBRANI SLUPKY
; FREZA SECO SQUARE D25
;
N16; FREZA SECO SQUARE D25
G17 G40 G94 G710
T16
M6
T1
G55 G90 S3300 M3
CYCLE800(0,"TC_GROB",200000,54,0,0,0,-90.,-135.,-180.,0,0,0,1,0,0)
IF LADENI==0
VODA
ENDIF
G0 X-58.25 Y60.5
X-58.25 Y60.5 Z12.979 D1
M8
M7
Z5.
G1 Z-0.2 F2000.
G41 Y43. F1000.
X-23.3
G40 Y60.5
G0 Z15.
X-58.25 Y58.5
Z5.
G1 Z-0.2 F2000.
G41 Y41. F1000.
X-23.3
G40 Y58.5
G0 Z15.
X12.3 Y60.5
Z5.
G1 Z-0.2 F2000.
G41 Y43. F1000.
X47.25
G40 Y60.5
G0 Z15.
X12.3 Y58.5
Z5.
G1 Z-0.2 F2000.
G41 Y41. F1000.
X47.25
G40 Y58.5
G0 Z15.
X58.25 Y-60.5
Z5.
G1 Z-0.2 F2000.
G41 Y-43. F1000.
X23.3
G40 Y-60.5
G0 Z15.
X58.25 Y-58.5
Z5.
G1 Z-0.2 F2000.
G41 Y-41. F1000.
X23.3
G40 Y-58.5
G0 Z15.
X-12.3 Y-60.5
Z5.
G1 Z-0.2 F2000.
G41 Y-43. F1000.
X-47.25
G40 Y-60.5
G0 Z15.
X-12.3 Y-58.5
Z5.
G1 Z-0.2 F2000.
G41 Y-41. F1000.
X-47.25
G40 Y-58.5
G0 Z15.
;
; OP20 ODLEHCENI SLUPKY
; FREZA SECO SQUARE D25
;
G90
G0 X-66.567 Y36.932
Z5.
G1 Z1.8 F2000.
G41 X-54.192 Y24.558 F1000.
X-37.586 Y41.164
G40 X-49.96 Y53.539
G0 Z15.
X-66.567 Y36.932
Z3.3
G1 Z0.1 F2000.
G41 X-54.192 Y24.558 F1000.
X-37.586 Y41.164
G40 X-49.96 Y53.539
G0 Z15.
;
; OP20 ODLEHCENI SLUPKY
; FREZA SECO SQUARE D25
;
G90
G0 X66.567 Y-36.932
Z5.
G1 Z1.8 F2000.
G41 X54.192 Y-24.558 F1000.
X37.586 Y-41.164
G40 X49.96 Y-53.539
G0 Z15.
X66.567 Y-36.932
Z3.3
G1 Z0.1 F2000.
G41 X54.192 Y-24.558 F1000.
X37.586 Y-41.164
G40 X49.96 Y-53.539
G0 Z15.
Z19.94
M9
CYCLE800()
G_BACK_TUNNEL
M5
M1

;
; OP10 HRUB CELA
; SECO SQUARE D50
;
N1; SECO SQUARE D50
G17 G40 G94 G710

SETPIECE(0)
T1
M6
D1
; preskoceni odpocitani kusu, kdyz jen vyhledavani
IF $P_SEARCH==1 GOTOF LEJBL1
SETPIECE(1)
LEJBL1:

T16
G54 G90 S2000 M3
CYCLE800(0,"TC_GROB",200000,54,0,0,0,90.,-135.,-180.,0,0,0,1,0,0)
M10
M20
IF LADENI==0
VODA
ENDIF

G0 X-24. Y-70.
X-24. Y-70. Z15.745 D1
M8
M7
Z5.
G1 Z0.3 F1500.
Y39.664 F1300.
Y65. F2000.
X24.
Y-45. F1300.
G0 Z15.
;
; OP10 PLUNGING
; SECO SQUARE D50
;
G90 F750. S1200
G0 X0. Y-68.8
Z5.

G0 X0. Y-68.8
G1 Z-13.5 F750
G91 Y-1. F5000
G90 Z1.

Y-66.3
G1 Z-13.5 F750
G91 Y-1. F5000
G90 Z1.

Y-63.8
G1 Z-13.5 F750
G91 Y-1. F5000
G90 Z1.

Y-61.3
G1 Z-13.5 F750
G91 Y-1. F5000
G90 Z1.

Y-58.8
G1 Z-13.5 F750
G91 Y-1. F5000
G90 Z1.

Y-56.3
G1 Z-13.5 F750
G91 Y-1. F5000
G90 Z1.

Y-53.8
G1 Z-13.5 F750
G91 Y-1. F5000
G90 Z1.

Y-51.3
G1 Z-13.5 F750
G91 Y-1. F5000
G90 Z1.

Y-48.8
G1 Z-13.5 F750
G91 Y-1. F5000
G90 Z1.

Y68.8
G1 Z-13.5 F750
G91 Y1. F5000
G90 Z1.

Y66.3
G1 Z-13.5 F750
G91 Y1. F5000
G90 Z1.

Y63.8
G1 Z-13.5 F750
G91 Y1. F5000
G90 Z1.

Y61.3
G1 Z-13.5 F750
G91 Y1. F5000
G90 Z1.

Y58.8
G1 Z-13.5 F750
G91 Y1. F5000
G90 Z1.

Y56.3
G1 Z-13.5 F750
G91 Y1. F5000
G90 Z1.

Y53.8
G1 Z-13.5 F750
G91 Y1. F5000
G90 Z1.

Y51.3
G1 Z-13.5 F750
G91 Y1. F5000
G90 Z1.

Y48.8
G1 Z-13.5 F750
G91 Y1. F5000
G90 Z1.

;MCALL
G0 Z15.
;
; OP10 HRUB OBVODU
; SECO SQUARE D50

G90 S2000
G0 X-75.45 Y0.
Z5.
G1 Z-2.867 F2000.
G41 X-45.45 F1500.
Y39.7
G2 X-44.95 Y40.2 I0.5 J0.
G1 X-30.
G2 X-25.404 Y37.432 I0. J-5.2
G3 X-2.6 Y23.7 I22.804 J12.068
G1 X2.6
G3 X25.404 Y37.432 I0. J25.8
G2 X30. Y40.2 I4.596 J-2.432
G1 X44.95
G2 X45.45 Y39.7 I0. J-0.5
G1 Y-39.7
G2 X44.95 Y-40.2 I-0.5 J0.
G1 X30.
G2 X25.404 Y-37.432 I0. J5.2
G3 X2.6 Y-23.7 I-22.804 J-12.068
G1 X-2.6
G3 X-25.404 Y-37.432 I0. J-25.8
G2 X-30. Y-40.2 I-4.596 J2.432
G1 X-44.95
G2 X-45.45 Y-39.7 I0. J0.5
G1 Y0.
Y1.
G40 X-75.45
G0 Z15.
Y0.
Z2.133
G1 Z-5.733 F2000.
G41 X-45.45 F1500.
Y39.7
G2 X-44.95 Y40.2 I0.5 J0.
G1 X-30.
G2 X-25.404 Y37.432 I0. J-5.2
G3 X-2.6 Y23.7 I22.804 J12.068
G1 X2.6
G3 X25.404 Y37.432 I0. J25.8
G2 X30. Y40.2 I4.596 J-2.432
G1 X44.95
G2 X45.45 Y39.7 I0. J-0.5
G1 Y-39.7
G2 X44.95 Y-40.2 I-0.5 J0.
G1 X30.
G2 X25.404 Y-37.432 I0. J5.2
G3 X2.6 Y-23.7 I-22.804 J-12.068
G1 X-2.6
G3 X-25.404 Y-37.432 I0. J-25.8
G2 X-30. Y-40.2 I-4.596 J2.432
G1 X-44.95
G2 X-45.45 Y-39.7 I0. J0.5
G1 Y0.
Y1.
G40 X-75.45
G0 Z15.
Y0.
Z-0.733
G1 Z-8.6 F2000.
G41 X-45.45 F1500.
Y39.7
G2 X-44.95 Y40.2 I0.5 J0.
G1 X-30.
G2 X-25.404 Y37.432 I0. J-5.2
G3 X-2.6 Y23.7 I22.804 J12.068
G1 X2.6
G3 X25.404 Y37.432 I0. J25.8
G2 X30. Y40.2 I4.596 J-2.432
G1 X44.95
G2 X45.45 Y39.7 I0. J-0.5
G1 Y-39.7
G2 X44.95 Y-40.2 I-0.5 J0.
G1 X30.
G2 X25.404 Y-37.432 I0. J5.2
G3 X2.6 Y-23.7 I-22.804 J-12.068
G1 X-2.6
G3 X-25.404 Y-37.432 I0. J-25.8
G2 X-30. Y-40.2 I-4.596 J2.432
G1 X-44.95
G2 X-45.45 Y-39.7 I0. J0.5
G1 Y0.
Y1.
G40 X-75.45
G0 Z15.
Z61.213
M11
M21
CYCLE800()
G_BACK_TUNNEL

;
; OP20 HRUB CELA
; SECO SQUARE D50
;
G17 G55 G90
CYCLE800(0,"TC_GROB",200000,54,0,0,0,-90.,-135.,-180.,0,0,0,1,0,0)
M10
M20
G0 X-24. Y-70.
X-24. Y-70. Z15.745 D1
M8
M7
Z5.
G1 Z2.05 F1500.
Y39.7 F1300.
Y65. F2000.
X24.
Y-45. F1300.
X-24. Y-70.
Z0.3 F1500.
Y40.024 F1300.
Y65. F2000.
X24.
Y-45. F1300.
G0 Z15.
Z40.745
M9
M11
M21
CYCLE800()
G_BACK_TUNNEL
M5
M1

;
; OP10 DOHRUB
; FREZA SECO SQUARE D25
;
N16; FREZA SECO SQUARE D25
G17 G40 G94 G710

SETPIECE(0)
T16 D1
M6
D1
; preskoceni odpocitani kusu, kdyz jen vyhledavani
IF $P_SEARCH==1 GOTOF LEJBL2
SETPIECE(1)
LEJBL2:

T17
G54 G90 S3300 M3
CYCLE800(0,"TC_GROB",200000,54,0,0,0,90.,-135.,-180.,0,0,0,1,0,0)
IF LADENI==0
VODA
ENDIF
G0 X7.3 Y-50.
X7.3 Y-50. Z23.479 D1
M8
M7
Z5.
G1 Z-2.867 F1500.
G41 X24.8 F1000.
Y-30.868
X9.734 Y-23.7
X-9.734
X-24.8 Y-30.868
Y-45.
G40 X-7.3
X7.3 Y-50.
Z-5.733 F1500.
G41 X24.8 F1000.
Y-30.868
X9.734 Y-23.7
X-9.734
X-24.8 Y-30.868
Y-45.
G40 X-7.3
X7.3 Y-50.
Z-8.6 F1500.
G41 X24.8 F1000.
Y-30.868
X9.734 Y-23.7
X-9.734
X-24.8 Y-30.868
Y-45.
G40 X-7.3
G0 Z15.
;
; OP10 DOHRUB
; FREZA SECO SQUARE D25
;
G90
G0 Y50.
Z5.
G1 Z-2.867 F1500.
G41 X-24.8 F1000.
Y30.868
X-9.734 Y23.7
X9.734
X24.8 Y30.868
Y45.
G40 X7.3
X-7.3 Y50.
Z-5.733 F1500.
G41 X-24.8 F1000.
Y30.868
X-9.734 Y23.7
X9.734
X24.8 Y30.868
Y45.
G40 X7.3
X-7.3 Y50.
Z-8.6 F1500.
G41 X-24.8 F1000.
Y30.868
X-9.734 Y23.7
X9.734
X24.8 Y30.868
Y45.
G40 X7.3
G0 Z15.
;
; OP10 DOHRUB
; FREZA SECO SQUARE D25
;
G90
G0 X7.6 Y-50.
Z5.
G1 Z-9.65 F1500.
G41 X25.1 F1000.
Y-39.65
G3 X17.799 Y-28.091 I-12.8 J0.
G1 X11.179 Y-24.942
G3 X5.68 Y-23.7 I-5.499 J-11.558
G1 X-5.68
G3 X-11.179 Y-24.942 I0. J-12.8
G1 X-17.799 Y-28.091
G3 X-25.1 Y-39.65 I5.499 J-11.559
G1 Y-45.
G40 X-7.6
X7.6 Y-50.
Z-12.3 F1500.
G41 X25.1 F1000.
Y-39.65
G3 X17.799 Y-28.091 I-12.8 J0.
G1 X11.179 Y-24.942
G3 X5.68 Y-23.7 I-5.499 J-11.558
G1 X-5.68
G3 X-11.179 Y-24.942 I0. J-12.8
G1 X-17.799 Y-28.091
G3 X-25.1 Y-39.65 I5.499 J-11.559
G1 Y-45.
G40 X-7.6
G0 Z15.
;
; OP10 DOHRUB
; FREZA SECO SQUARE D25
;
G90
G0 Y50.
Z5.
G1 Z-9.65 F1500.
G41 X-25.1 F1000.
Y39.65
G3 X-17.799 Y28.091 I12.8 J0.
G1 X-11.179 Y24.942
G3 X-5.68 Y23.7 I5.499 J11.558
G1 X5.68
G3 X11.179 Y24.942 I0. J12.8
G1 X17.799 Y28.091
G3 X25.1 Y39.65 I-5.499 J11.559
G1 Y45.
G40 X7.6
X-7.6 Y50.
Z-12.3 F1500.
G41 X-25.1 F1000.
Y39.65
G3 X-17.799 Y28.091 I12.8 J0.
G1 X-11.179 Y24.942
G3 X-5.68 Y23.7 I5.499 J11.558
G1 X5.68
G3 X11.179 Y24.942 I0. J12.8
G1 X17.799 Y28.091
G3 X25.1 Y39.65 I-5.499 J11.559
G1 Y45.
G40 X7.6
G0 Z15.
;
; OP10 HRUB STREDOVE DIRY
; FREZA SECO SQUARE D25
;
G90
G0 X0. Y0.
Z5.
G1 Z0. F2000.
G41 X16.65 F1200.
G3 X9.787 Y13.47 Z-0.3 I-16.65 J0.
X9.787 Y13.47 Z-2.3 I-9.787 J-13.47
X9.787 Y13.47 Z-4.3 I-9.787 J-13.47
X9.787 Y13.47 Z-6.3 I-9.787 J-13.47
X9.787 Y13.47 Z-8.3 I-9.787 J-13.47
X9.787 Y13.47 Z-10.3 I-9.787 J-13.47
X9.787 Y13.47 Z-12.3 I-9.787 J-13.47
I-9.787 J-13.47
G40 G1 X1.852 Y2.548
G0 X0. Y0.
Z15.
Z61.213
CYCLE800()
G_BACK_TUNNEL
;
; OP20 HRUB DIRY 37.13
; FREZA SECO SQUARE D25
;
G17 G55 G90
CYCLE800(0,"TC_GROB",200000,54,0,0,0,-90.,-135.,-180.,0,0,0,1,0,0)
G0 X0. Y0.
X0. Y0. Z61.213 D1
M8
M7
Z5.
G1 Z0. F2000.
G41 X18.365 F1200.
G3 X-17.466 Y5.675 Z-0.9 I-18.365 J0.
X-17.466 Y5.675 Z-2.9 I17.466 J-5.675
I17.466 J-5.675
G40 G1 X-4.627 Y1.503
G0 X0. Y0.
Z15.
Z61.213
M9
CYCLE800()
G_BACK_TUNNEL
M5
M1


CYCLE832(0.02,_FINISH,1)

;
; OP10 OBVOD SEMIFINIS ROHU
; FREZA 8 HRUB PT00091
;
N17; FREZA 8 HRUB PT00091
G17 G40 G94 G710
T17
M6
T5
G54 G90 S6000 M3
CYCLE800(0,"TC_GROB",200000,54,0,0,0,90.,-135.,-180.,0,0,0,1,0,0)
IF LADENI==0
VODA
ENDIF
G0 X30. Y-47.05
X30. Y-47.05 Z18.116 D1
M8
M7
Z1.
G1 Z-8.5 F2000.
G41 Y-40.05 F1000.
G2 X24.95 Y-35. I0. J5.05
G1 Y-33.837
G3 X22.184 Y-29.457 I-4.85 J0.
G1 X10.756 Y-24.02
G3 X8.673 Y-23.55 I-2.083 J-4.38
G1 X-8.673
G3 X-10.756 Y-24.02 I0. J-4.85
G1 X-22.184 Y-29.457
G3 X-24.95 Y-33.837 I2.084 J-4.38
G1 Y-35.
G2 X-30. Y-40.05 I-5.05 J0.
G40 G1 Y-47.05
G0 Z15.
;
; OP10 OBVOD SEMIFINIS ROHU
; FREZA 8 HRUB PT00091
;
G90
G0 Y47.05
Z1.
G1 Z-8.5 F2000.
G41 Y40.05 F1000.
G2 X-24.95 Y35. I0. J-5.05
G1 Y33.837
G3 X-22.184 Y29.457 I4.85 J0.
G1 X-10.756 Y24.02
G3 X-8.673 Y23.55 I2.083 J4.38
G1 X8.673
G3 X10.756 Y24.02 I0. J4.85
G1 X22.184 Y29.457
G3 X24.95 Y33.837 I-2.084 J4.38
G1 Y35.
G2 X30. Y40.05 I5.05 J0.
G40 G1 Y47.05
G0 Z15.
Z18.116
M9
CYCLE800()
G_BACK_TUNNEL
M5
M1

CYCLE832(0,_OFF,1)

;
; OP10 VRTANI POD M6
; VHM VRTAK D5.56 PT00391
;
N5; VHM VRTAK D5.56 PT00391
G17 G40 G94 G710
T5
M6
T6
G54 G90 F630. S5200 M3
CYCLE800(0,"TC_GROB",200000,54,0,0,0,90.,-135.,-180.,0,0,0,1,0,0)
IF LADENI==0
VODA
ENDIF
G0 X-37.75 Y0.
X-37.75 Y0. Z61.213 D1
M8
M7
Z15.
; RETRACTION PLANE RTP = 15.
; REFERENCE PLANE RFP = 0
; SAFETY CLEARANCE SDIS = 2.
; DRILLING DEPTH PLANE DP = -14.
; 1ST PECK DEPTH FDPR = 4.7
; PECK DEGRESSION AMOUNT DAM = 0
; DWELL TIME AT BOTTOM DTB = 0
; FEED RATE FACTOR FRF = 1.
; DEEP HOLE CYCLE VARI = 1
MCALL CYCLE83(15.,0,2.,-14.,,,4.7,0,0,,1,1,0,,,,,0,0,0)
X-37.75 Y0.
MCALL
G0 Z15.
Z61.213
M9
CYCLE800()
G_BACK_TUNNEL
M5
M1

;
; OP10 DIRY POD M5
; VHM VRTAK D4.65 PT00384
;
N6; VHM VRTAK D4.65 PT00384
G17 G40 G94 G710
T6
M6
T7
G54 G90 F600. S6200 M3
G0 X157.583 Y-166.084
CYCLE800(0,"TC_GROB",200000,54,0,0,0,90.,-135.,-180.,0,0,0,1,0,0)
IF LADENI==0
VODA
ENDIF
X-22.5 Y22. Z40.692 D1
M8
M7
G0 Z15.
; RETRACTION PLANE RTP = 15.
; REFERENCE PLANE RFP = 0
; SAFETY CLEARANCE SDIS = 2.
; DRILLING DEPTH PLANE DP = -13.5
; 1ST PECK DEPTH FDPR = 4.5
; PECK DEGRESSION AMOUNT DAM = 0
; FEED RATE FACTOR FRF = 1.
; CHIP BREAKER CYCLE VARI = 0
; DWELL TIME AT BOTTOM _DTD = 0
MCALL CYCLE83(15.,0,2.,-13.5,,,4.5,0,,,1,0,0,,0.5,0,,0,0,0)
X-22.5 Y22.
X22.5
Y-22.
X-22.5
MCALL
G0 Z15.
Z40.692
M9
CYCLE800()
G_BACK_TUNNEL
M5
M1

;
; OP10 VRTANI D3.5
; VHM VRTAK D3.5 PT00291
;
N7; VHM VRTAK D3.5 PT00291
G17 G40 G94 G710
T7
M6
T13
G54 G90 F400. S9500 M3
G0 X137.833 Y-206.684
CYCLE800(0,"TC_GROB",200000,54,0,0,0,90.,-135.,-180.,0,0,0,1,0,0)
IF LADENI==0
VODA
ENDIF
X-42.25 Y-18.6 Z43.726 D1
M8
M7
G0 Z15.
; RETRACTION PLANE RTP = 15.
; REFERENCE PLANE RFP = 0
; SAFETY CLEARANCE SDIS = 2.
; DRILLING DEPTH PLANE DP = -13.
; 1ST PECK DEPTH FDPR = 3.25
; PECK DEGRESSION AMOUNT DAM = 0
; DWELL TIME AT BOTTOM DTB = 0
; FEED RATE FACTOR FRF = 1.
; DEEP HOLE CYCLE VARI = 1
MCALL CYCLE83(15,0,2,-13,,,3.25,0,0,0,100,1,0,,,0,0,0,0,11111112)
X-42.25 Y-18.6
Y18.6
X42.25 Y-18.6
Y18.6
MCALL
G0 Z15.
Z43.726
M9
CYCLE800()
G_BACK_TUNNEL
M5
M1

;
; OP10 HRUB DRAZEK8
; FR6 HRUB PT00087
;
N13; FR6 HRUB PT00087
G17 G40 G94 G710
T13
M6
T11
G54 G90 S4500 M3
G0 X229.833 Y-169.484
CYCLE800(0,"TC_GROB",200000,54,0,0,0,90.,-135.,-180.,0,0,0,1,0,0)
IF LADENI==0
VODA
ENDIF
X49.75 Y18.6 Z45.613 D1
M8
M7
G0 Z2.
G1 Z-2.8 F2000.
X41.45 F350.
G0 Z5.
;
; OP10 HRUB DRAZEK8
; FR6 HRUB PT00087
;
G90
G0 X49.75 Y-18.6
Z2.
G1 Z-2.8 F2000.
X41.45 F350.
G0 Z5.
;
; OP10 HRUB DRAZEK8
; FR6 HRUB PT00087
;
G90
G0 X-49.75
Z2.
G1 Z-2.8 F2000.
X-41.45 F350.
G0 Z5.
;
; OP10 HRUB DRAZEK8
; FR6 HRUB PT00087
;
G90
G0 X-49.75 Y18.6
Z2.
G1 Z-2.8 F2000.
X-41.45 F350.
G0 Z5.
Z45.613
M9
CYCLE800()
G_BACK_TUNNEL
M5
M1

;
; OP10 NACISTO DRAZKY8
; HM FREZA D6-3Z PT00037
;
N11; HM FREZA D6-3Z PT00037
G17 G40 G94 G710
T11
M6
T10
G54 G90 S4500 M3
G0 X230.636 Y-166.295
CYCLE800(0,"TC_GROB",200000,54,0,0,0,90.,-135.,-180.,0,0,0,1,0,0)
IF LADENI==0
VODA
ENDIF
X50.553 Y21.789 Z42.424 D1
M8
M7
G0 Z2.
G1 Z-3. F2000.
G41 X47.371 Y24.971 F450.
X45. Y22.6
X42.25
G3 Y14.6 I0. J-4.
G1 X45.
X45.25 Y14.35
G40 X48.432 Y17.532
G0 Z5.
;
; OP10 NACISTO DRAZKY8
; HM FREZA D6-3Z PT00037
;
G90
G0 X50.553 Y-15.411
Z2.
G1 Z-3. F2000.
G41 X47.371 Y-12.229 F450.
X45. Y-14.6
X42.25
G3 Y-22.6 I0. J-4.
G1 X45.
X45.25 Y-22.85
G40 X48.432 Y-19.668
G0 Z5.
;
; OP10 NACISTO DRAZKY8
; HM FREZA D6-3Z PT00037
;
G90
G0 X-50.553 Y-21.789
Z2.
G1 Z-3. F2000.
G41 X-47.371 Y-24.971 F450.
X-45. Y-22.6
X-42.25
G3 Y-14.6 I0. J4.
G1 X-45.
X-45.25 Y-14.35
G40 X-48.432 Y-17.532
G0 Z5.
;
; OP10 NACISTO DRAZKY8
; HM FREZA D6-3Z PT00037
;
G90
G0 X-50.553 Y15.411
Z2.
G1 Z-3. F2000.
G41 X-47.371 Y12.229 F450.
X-45. Y14.6
X-42.25
G3 Y22.6 I0. J4.
G1 X-45.
X-45.25 Y22.85
G40 X-48.432 Y19.668
G0 Z5.
Z44.545
CYCLE800()
G_BACK_TUNNEL
;
; OP10 NACISTO DRAZKY8
; HM FREZA D6-3Z PT00037
;
G17 G54 G90
CYCLE800(0,"TC_GROB",200000,54,12.445,8.202,45.25,-35.264,-30.,-35.264,0,0,0,1,0,0)
G0 X4. Y3.45
X4. Y3.45 Z22.688 D1
M8
M7
Z2.
G1 Z-0.2 F2000.
G41 Y7.95 F450.
X-1.
G3 Y0.05 I0. J-3.95
G1 X3.
G40 Y4.55
G0 Z5.
X4. Y-33.75
Z2.
G1 Z-0.2 F2000.
G41 Y-29.25 F450.
X-1.
G3 Y-37.15 I0. J-3.95
G1 X3.
G40 Y-32.65
G0 Z5.
Z23.688
CYCLE800()
G_BACK_TUNNEL
;
; OP10 NACISTO DRAZKY8
; HM FREZA D6-3Z PT00037
;
G17 G54 G90
CYCLE800(0,"TC_GROB",200000,54,12.445,8.202,-45.25,35.264,-150.,-144.736,0,0,0,1,0,0)
G0 X-4. Y-32.65
X-4. Y-32.65 Z22.688 D1
M8
M7
Z2.
G1 Z-0.2 F2000.
G41 Y-37.15 F450.
X0.998
X1.774 Y-37.073
X2.512 Y-36.849
X3.191 Y-36.486
X3.793 Y-35.993
X4.286 Y-35.391
X4.649 Y-34.712
X4.873 Y-33.974
X4.95 Y-33.2
X4.873 Y-32.426
X4.649 Y-31.688
X4.286 Y-31.009
X3.793 Y-30.407
X3.191 Y-29.914
X2.512 Y-29.551
X1.774 Y-29.327
X0.998 Y-29.25
X-3.
G40 Y-33.75
G0 Z5.
X-4. Y4.55
Z2.
G1 Z-0.2 F2000.
G41 Y0.05 F450.
X0.998
X1.774 Y0.127
X2.512 Y0.351
X3.191 Y0.714
X3.793 Y1.207
X4.286 Y1.809
X4.649 Y2.488
X4.873 Y3.226
X4.95 Y4.
X4.873 Y4.774
X4.649 Y5.512
X4.286 Y6.191
X3.793 Y6.793
X3.191 Y7.286
X2.512 Y7.649
X1.774 Y7.873
X0.998 Y7.95
X-3.
G40 Y3.45
G0 Z5.
Z23.688
M9
CYCLE800()
G_BACK_TUNNEL
M5
M1

CYCLE832(0.02,_FINISH,1)
;
; OP10 OBVOD NACISTO
; HM FREZA D8-3Z PT00046
;
N10; HM FREZA D8-3Z PT00046
G17 G40 G94 G710
T10
M6
T9
G54 G90 S6000 M3
G0 X128.833 Y-237.784
CYCLE800(0,"TC_GROB",200000,54,0,0,0,90.,-135.,-180.,0,0,0,1,0,0)
IF LADENI==0
VODA
ENDIF
X-51.25 Y-49.7 Z15.466 D1
M8
M7
G0 Z3.
G1 Z-8.5 F2000.
G41 X-45.25 F1000.
Y39.7
G2 X-44.95 Y40. I0.3 J0.
G1 X-30.
G2 X-25. Y35. I0. J-5.
G1 Y33.837
G3 X-22.205 Y29.412 I4.9 J0.
G1 X-10.778 Y23.975
G3 X-8.673 Y23.5 I2.105 J4.425
G1 X8.673
G3 X10.778 Y23.975 I0. J4.9
G1 X22.205 Y29.412
G3 X25. Y33.837 I-2.105 J4.425
G1 Y35.
G2 X30. Y40. I5. J0.
G1 X44.95
G2 X45.25 Y39.7 I0. J-0.3
G1 Y-39.7
G2 X44.95 Y-40. I-0.3 J0.
G1 X30.
G2 X25. Y-35. I0. J5.
G1 Y-33.837
G3 X22.205 Y-29.412 I-4.9 J0.
G1 X10.778 Y-23.975
G3 X8.673 Y-23.5 I-2.105 J-4.425
G1 X-8.673
G3 X-10.778 Y-23.975 I0. J-4.9
G1 X-22.205 Y-29.412
G3 X-25. Y-33.837 I2.105 J-4.425
G1 Y-35.
G2 X-30. Y-40. I-5. J0.
G1 X-44.926
G2 X-45.138 Y-39.912 I0. J0.3
G1 X-46.664 Y-38.386
G40 X-50.907 Y-42.628
G0 Z15.
;
; OP10VYKUS NACISTO
; HM FREZA D8-3Z PT00046
;
G90
G0 X6.227 Y-31.6
Z3.
G1 Z-14. F2000.
G41 X13.227 F1000.
Y-28.6
G3 X8.127 Y-23.5 I-5.1 J0.
G1 X-8.127
G3 X-13.227 Y-28.6 I0. J-5.1
G1 Y-31.6
G40 X-6.227
G0 Z15.
Y31.6
Z3.
G1 Z-14.
G41 X-13.227
Y28.6
G3 X-8.127 Y23.5 I5.1 J0.
G1 X8.127
G3 X13.227 Y28.6 I0. J5.1
G1 Y31.6
G40 X6.227
G0 Z15.
Z33.566
M9
CYCLE800()
G_BACK_TUNNEL
M5
M1

CYCLE832(0,_OFF,1)

;
; OP10 D33.7 NACISTO
; HM FREZA D16-4Z PT00068
;
N9; HM FREZA D16-4Z PT00068
G17 G40 G94 G710

T9
M6
T12
G54 G90 S4000 M3
CYCLE800(0,"TC_GROB",200000,54,0,0,0,90.,-135.,-180.,0,0,0,1,0,0)
IF LADENI==0
VODA
ENDIF
G0 X4.863 Y0.62
X4.863 Y0.62 Z61.213 D1
M8
M7
Z15.
Z2.
G1 Z-13. F500.
G41 X11.934 Y-3.622
G3 Y11.934 I-7.778 J7.778
I-11.934 J-11.934
X10.517 Y13.2 I-11.934 J-11.934
X-4.941 Y11.451 I-6.854 J-8.603
G40 G1 X0.07 Y4.902
G0 Z15.
;
; OP10 D35 NACISTO
; HM FREZA D16-4Z PT00068
;
G90
G0 X5.333 Y1.091
Z2.
G1 Z-0.55 F500.
G41 X12.404 Y-3.152
G3 Y12.404 I-7.778 J7.778
I-12.404 J-12.404
X11.039 Y13.634 I-12.404 J-12.404
X-4.432 Y12.007 I-6.922 J-8.549
G40 G1 X0.527 Y5.418
G0 Z15.
Z61.213
CYCLE800()
G_BACK_TUNNEL
;
; OP20 D37.1 NACISTO
; HM FREZA D16-4Z PT00068
;
G17 G55 G90
CYCLE800(0,"TC_GROB",200000,54,0,0,0,-90.,-135.,-180.,0,0,0,1,0,0)
G0 X6.056 Y1.814
X6.056 Y1.814 Z61.213 D1
M8
M7
Z15.
Z2.
G1 Z-3. F1000.
G41 X13.127 Y-2.429
G3 Y13.127 I-7.778 J7.778
I-13.127 J-13.127
X11.828 Y14.309 I-13.127 J-13.127
X-3.659 Y12.839 I-7.008 J-8.478
G40 G1 X1.233 Y6.201
G0 Z15.
Z61.213
M9
CYCLE800()
G_BACK_TUNNEL
M5
M1

;
; OP10 ODHROT OBVOD
; ODHROTOVAC D6/90ST PT00157
;
N12; ODHROTOVAC D6/90ST PT00157
G17 G40 G94 G710
T12
M6
T8
G54 G90 S7800 M3
CYCLE800(0,"TC_GROB",200000,54,0,0,0,90.,-135.,-180.,0,0,0,1,0,0)
IF LADENI==0
VODA
ENDIF
G0 X-50.55 Y0.
X-50.55 Y0. Z61.213 D1
M8
M7
Z2.
G1 Z-2.5 F2000.
G41 X-44.55 F1200.
Y13.9
X-42.25
G3 Y23.3 I0. J4.7
G1 X-44.55
Y39.3
X-30.
G2 X-25.7 Y35. I0. J-4.3
G1 Y33.9
G3 X-22.449 Y28.753 I5.7 J0.
G1 X-11.099 Y23.353
G3 X-8.65 Y22.8 I2.449 J5.147
G1 X8.65
G3 X11.099 Y23.353 I0. J5.7
G1 X22.449 Y28.753
G3 X25.7 Y33.9 I-2.449 J5.147
G1 Y35.
G2 X30. Y39.3 I4.3 J0.
G1 X44.55
Y23.3
X42.25
G3 Y13.9 I0. J-4.7
G1 X44.55
Y-13.9
X42.25
G3 Y-23.3 I0. J-4.7
G1 X44.55
Y-39.3
X30.
G2 X25.7 Y-35. I0. J4.3
G1 Y-33.9
G3 X22.449 Y-28.753 I-5.7 J0.
G1 X11.099 Y-23.353
G3 X8.65 Y-22.8 I-2.449 J-5.147
G1 X-8.65
G3 X-11.099 Y-23.353 I0. J-5.7
G1 X-22.449 Y-28.753
G3 X-25.7 Y-33.9 I2.449 J-5.147
G1 Y-35.
G2 X-30. Y-39.3 I-4.3 J0.
G1 X-44.55
Y-23.3
X-42.25
G3 Y-13.9 I0. J4.7
G1 X-44.55
Y0.
Y1.
G40 X-50.55
G0 Z15.
;
; OP10 ODHROT M6
; ODHROTOVAC D6/90ST PT00157
;
G90
G0 X-37.75 Y-0.2
Z2.
G1 Z-2.5 F2000.
G41 Y3.8 F1000.
G3 I0. J-3.8
X-41.356 Y1.198 I0. J-3.8
G40 G1 X-37.56 Y-0.063
G0 Z15.
;
; OP10 ODHROT D6.6
; ODHROTOVAC D6/90ST PT00157
;
G90
G0 X-33. Y34.5
Z2.
G1 Z-2.5 F2000.
G41 Y38.5 F1000.
G3 I0. J-4.
X-36.366 Y36.661 I0. J-4.
G40 G1 X-33. Y34.5
G0 Z15.
;
; OP10 ODHROT D33.7
; ODHROTOVAC D6/90ST PT00157
;
G90
G0 X2. Y11.128
Z2.
G1 Z-3.4 F2000.
G41 X5. Y12.128 F1200.
G3 X0. Y17.128 I-5. J0.
I0. J-17.128
X-1.211 Y17.085 I0. J-17.128
X-5.845 Y11.744 I0.353 J-4.988
G40 G1 X-2.782 Y10.958
G0 Z15.
;
; OP10 ODHROT D6.6
; ODHROTOVAC D6/90ST PT00157
;
G90
G0 X-33. Y-34.5
Z2.
G1 Z-2.5 F2000.
G41 Y-30.5 F1000.
G3 I0. J-4.
X-36.366 Y-32.339 I0. J-4.
G40 G1 X-33. Y-34.5
G0 Z15.
;
; OP10 ODHROT D6.6
; ODHROTOVAC D6/90ST PT00157
;
G90
G0 X33.
Z2.
G1 Z-2.5 F2000.
G41 Y-30.5 F1000.
G3 I0. J-4.
X29.634 Y-32.339 I0. J-4.
G40 G1 X33. Y-34.5
G0 Z15.
;
; OP10 ODHROT D6.6
; ODHROTOVAC D6/90ST PT00157
;
G90
G0 Y34.5
Z2.
G1 Z-2.5 F2000.
G41 Y38.5 F1000.
G3 I0. J-4.
X29.634 Y36.661 I0. J-4.
G40 G1 X33. Y34.5
G0 Z15.
;
; OP10 ODHROT M5
; ODHROTOVAC D6/90ST PT00157
;
G90 F300. S4500
G0 X-22.5 Y22.
Z10.
; RETRACTION PLANE RTP = 10.
; REFERENCE PLANE RFP = 0
; SAFETY CLEARANCE SDIS = 0
; DRILLING DEPTH PLANE DP = -2.8
; DWELL TIME AT BOTTOM DTB = 0.5
MCALL CYCLE82(10.,0,0,-2.8,,0.5,0,0,0,0)
X-22.5 Y22.
Y-22.
X22.5
Y22.
MCALL
G0 Z10.
;
; OP10 ODHROT D3.5
; ODHROTOVAC D6/90ST PT00157
;
G90 F300. S6000
G0 X42.25 Y-18.6
; RETRACTION PLANE RTP = 10.
; REFERENCE PLANE RFP = -3.
; SAFETY CLEARANCE SDIS = 0
; DRILLING DEPTH PLANE DP = -4.95
; DWELL TIME AT BOTTOM DTB = 0.5
MCALL CYCLE82(10.,-3.,0,-4.95,,0.5,0,0,0,0)
X42.25 Y-18.6
Y18.6
X-42.25
Y-18.6
MCALL
G0 Z10.
Z42.613
CYCLE800()
G_BACK_TUNNEL
;
; OP20 ODHROT OBVOD
; ODHROTOVAC D6/90ST PT00157
;
G17 G55 G90 S7800
CYCLE800(0,"TC_GROB",200000,54,0,0,0,-90.,-135.,-180.,0,0,0,1,0,0)
G0 X-49.55 Y-42.5
X-49.55 Y-42.5 Z18.713 D1
M8
M7
Z2.
G1 Z-2.5 F2000.
G41 X-44.55 F1200.
Y39.3
X-30.
G2 X-25.7 Y35. I0. J-4.3
G1 Y33.9
G3 X-22.449 Y28.753 I5.7 J0.
G1 X-11.099 Y23.353
G3 X-8.65 Y22.8 I2.449 J5.147
G1 X8.65
G3 X11.099 Y23.353 I0. J5.7
G1 X22.449 Y28.753
G3 X25.7 Y33.9 I-2.449 J5.147
G1 Y35.
G2 X30. Y39.3 I4.3 J0.
G1 X44.55
Y-39.3
X30.
G2 X25.7 Y-35. I0. J4.3
G1 Y-33.9
G3 X22.449 Y-28.753 I-5.7 J0.
G1 X11.099 Y-23.353
G3 X8.65 Y-22.8 I-2.449 J-5.147
G1 X-8.65
G3 X-11.099 Y-23.353 I0. J-5.7
G1 X-22.449 Y-28.753
G3 X-25.7 Y-33.9 I2.449 J-5.147
G1 Y-35.
G2 X-30. Y-39.3 I-4.3 J0.
G1 X-47.25
G40 Y-44.3
G0 Z15.
;
; OP20 ODHROT D6.6
; ODHROTOVAC D6/90ST PT00157
;
G90
G0 X-33. Y34.5
Z2.
G1 Z-2.5 F2000.
G41 Y38.5 F1000.
G3 I0. J-4.
X-36.366 Y36.661 I0. J-4.
G40 G1 X-33. Y34.5
G0 Z15.
;
; OP20 ODHROT M6
; ODHROTOVAC D6/90ST PT00157
;
G90
G0 X-37.75 Y-0.2
Z2.
G1 Z-2.5 F2000.
G41 Y3.8 F1000.
G3 I0. J-3.8
X-41.356 Y1.198 I0. J-3.8
G40 G1 X-37.56 Y-0.063
G0 Z15.
;
; OP20 ODHROT D6.6
; ODHROTOVAC D6/90ST PT00157
;
G90
G0 X-33. Y-34.5
Z2.
G1 Z-2.5 F2000.
G41 Y-30.5 F1000.
G3 I0. J-4.
X-36.366 Y-32.339 I0. J-4.
G40 G1 X-33. Y-34.5
G0 Z15.
;
; OP20 ODHROT D6.6
; ODHROTOVAC D6/90ST PT00157
;
G90
G0 X33.
Z2.
G1 Z-2.5 F2000.
G41 Y-30.5 F1000.
G3 I0. J-4.
X29.634 Y-32.339 I0. J-4.
G40 G1 X33. Y-34.5
G0 Z15.
;
; OP20 ODHROT D6.6
; ODHROTOVAC D6/90ST PT00157
;
G90
G0 Y34.5
Z2.
G1 Z-2.5 F2000.
G41 Y38.5 F1000.
G3 I0. J-4.
X29.634 Y36.661 I0. J-4.
G40 G1 X33. Y34.5
G0 Z15.
;
; OP20 ODHROT D33.7
; ODHROTOVAC D6/90ST PT00157
;
G90
G0 X2. Y11.578
Z2.
G1 Z-5.5 F2000.
G41 X5. Y12.578 F1200.
G3 X0. Y17.578 I-5. J0.
I0. J-17.578
X-1.205 Y17.536 I0. J-17.578
X-5.85 Y12.205 I0.343 J-4.988
G40 G1 X-2.789 Y11.413
G0 Z15.
;
; OP20 ODHROT D37.1
; ODHROTOVAC D6/90ST PT00157
;
G90
G0 X2. Y13.265
Z2.
G1 Z-2.5 F2000.
G41 X5. Y14.265 F1200.
G3 X0. Y19.265 I-5. J0.
I0. J-19.265
X-1.184 Y19.229 I0. J-19.265
X-5.867 Y13.931 I0.308 J-4.991
G40 G1 X-2.811 Y13.117
G0 Z15.
;
; OP20 ODHROT M5 FREZ
; ODHROTOVAC D6/90ST PT00157
;
G90
G0 X-22.5 Y22.
Z2.
G1 Z-1.5 F2000.
G41 Y26.1 F750.
G3 I0. J-4.1
X-25.735 Y24.519 I0. J-4.1
G40 G1 X-22.5 Y22.
G0 Z15.
X22.5
Z2.
G1 Z-1.5 F2000.
G41 Y26.1 F750.
G3 I0. J-4.1
X19.265 Y24.519 I0. J-4.1
G40 G1 X22.5 Y22.
G0 Z15.
Y-22.
Z2.
G1 Z-1.5 F2000.
G41 Y-17.9 F750.
G3 I0. J-4.1
X19.265 Y-19.481 I0. J-4.1
G40 G1 X22.5 Y-22.
G0 Z15.
X-22.5
Z2.
G1 Z-1.5 F2000.
G41 Y-17.9 F750.
G3 I0. J-4.1
X-25.735 Y-19.481 I0. J-4.1
G40 G1 X-22.5 Y-22.
G0 Z15.
;
; OP20 ODHROT D3.5
; ODHROTOVAC D6/90ST PT00157
;
G90 F300. S6000
G0 X-42.25 Y-18.6
; RETRACTION PLANE RTP = 10.
; REFERENCE PLANE RFP = 0
; SAFETY CLEARANCE SDIS = 0
; DRILLING DEPTH PLANE DP = -1.95
; DWELL TIME AT BOTTOM DTB = 0.5
MCALL CYCLE82(10.,0,0,-1.95,,0.5,0,0,0,0)
X-42.25 Y-18.6
Y18.6
X42.25
Y-18.6
MCALL
G0 Z10.
Z42.613
M9
CYCLE800()
G_BACK_TUNNEL
M5
M1

;
; OP10 ODHROT D35
; ODHROT D3/90ST PT00155
;
N8; ODHROT D3/90ST PT00155
G17 G40 G94 G710
T8
M6
T14
G54 G90 S15000 M3
CYCLE800(0,"TC_GROB",200000,54,0,0,0,90.,-135.,-180.,0,0,0,1,0,0)
IF LADENI==0
VODA
ENDIF
G0 X2. Y14.243
X2. Y14.243 Z46.971 D1
M8
M7
Z2.
G1 Z-0.4 F2000.
G41 X3.5 Y15.243 F400.
G3 X0. Y18.743 I-3.5 J0.
I0. J-18.743
X-1.086 Y18.711 I0. J-18.743
X-4.378 Y15.014 I0.202 J-3.494
G40 G1 X-2.822 Y14.103
G0 Z15.
Z47.111
M9
CYCLE800()
G_BACK_TUNNEL
M5
M1

;
; OP10 ZAVIT M5
; ZAVITNIK M5 TVARECI PT00460
;
N14; ZAVITNIK M5 TVARECI PT00460
G17 G40 G94 G710
T14
M6
T15
G54 G90 S600 M3
CYCLE800(0,"TC_GROB",200000,54,0,0,0,90.,-135.,-180.,0,0,0,1,0,0)
IF LADENI==0
VODA
ENDIF
G0 X-22.5 Y22.
X-22.5 Y22. Z40.27 D1
M8
M7
Z10.
; RETRACTION PLANE RTP = 10.
; REFERENCE PLANE RFP = 0
; SAFETY CLEARANCE SDIS = 2.
; DRILLING DEPTH PLANE DP = -14.
; DWELL TIME AT BOTTOM DTB = 0
; CW SPINDLE DIRECTION AT TAPPING SDAC = 3
; THREAD PITCH PIT = +0.8
; SPINDLE ORIENT ANGLE POSS = 0
; SPINDLE SPEED TAPPING SST = 600
; SPINDLE SPEED RETRACTION SST1 = 600
MCALL CYCLE84(10.,0,2.,-14.,,0,3,,0.8,0,600,600,0,1,0,0,,0,,,,,1000,1001002)
X-22.5 Y22.
X22.5
Y-22.
X-22.5
MCALL
G0 Z15.
Z40.27
M9
CYCLE800()
G_BACK_TUNNEL
M5
M1

;
; OP10 ZAVIT M6
; ZAVITNIK M6 TVARECI PT461 PT462
;
N15; ZAVITNIK M6 TVARECI PT461 PT462
G17 G40 G94 G710
T15
M6
T2
G54 G90 S500 M3
G0 X142.333 Y-188.084
CYCLE800(0,"TC_GROB",200000,54,0,0,0,90.,-135.,-180.,0,0,0,1,0,0)
IF LADENI==0
VODA
ENDIF
X-37.75 Y0. Z61.213 D1
M8
M7
G0 Z10.
; RETRACTION PLANE RTP = 10.
; REFERENCE PLANE RFP = 0
; SAFETY CLEARANCE SDIS = 2.
; DRILLING DEPTH PLANE DP = -13.
; DWELL TIME AT BOTTOM DTB = 0
; CW SPINDLE DIRECTION AT TAPPING SDAC = 3
; THREAD PITCH PIT = +1.
; SPINDLE ORIENT ANGLE POSS = 0
; SPINDLE SPEED TAPPING SST = 500
; SPINDLE SPEED RETRACTION SST1 = 500
MCALL CYCLE84(10.,0,2.,-13.,,0,3,,1.,0,500,500,0,1,0,0,,0,,,,,1000,1001002)
X-37.75 Y0.
MCALL
G0 Z15.
Z61.213
M9
CYCLE800()
G_BACK_TUNNEL
M5
M1

;
; OP10 CELO NACISTO
; SANDVIK D80
;
N2; SANDVIK D80
G17 G40 G94 G710

SETPIECE(0)
T2
M6
D1
; preskoceni odpocitani kusu, kdyz jen vyhledavani
IF $P_SEARCH==1 GOTOF LEJBL3
SETPIECE(1)
LEJBL3:

T9
G54 G90 S750 M3
G0 X89.083 Y-187.984
CYCLE800(0,"TC_GROB",200000,54,0,0,0,90.,-135.,-180.,0,0,0,1,0,0)
IF LADENI==0
VODA
ENDIF
X-91. Y0.1 Z61.213 D1
M7
G0 Z2.
G1 Z0. F600.
X-38. F750.
G2 X38. I38. J0.
G1 Y-0.1
G2 X-38. I-38. J0.
G1 X-91.
G0 Z5.
Z61.213
CYCLE800()
G_BACK_TUNNEL
;
; OP20 CELO NACISTO
; SANDVIK D80
;
G17 G55 G90
CYCLE800(0,"TC_GROB",200000,54,0,0,0,-90.,-135.,-180.,0,0,0,1,0,0)
G0 X-91. Y0.1
X-91. Y0.1 Z61.213 D1
M7
Z2.
G1 Z0. F600.
X-38. F750.
G2 X38. I38. J0.
G1 Y-0.1
G2 X-38. I-38. J0.
G1 X-91.
G0 Z5.
Z61.213
M9
CYCLE800()
G_BACK_TUNNEL
M5
M1

;
; OP10 D35 NACISTO PREJETI
; HM FREZA D16-4Z PT00068
;
N9; HM FREZA D16-4Z PT00068
G17 G40 G94 G710
T9
M6
T="TOUCH_PROBE"
G54 G90 S4000 M3
G0 X184.626 Y-191.084
CYCLE800(0,"TC_GROB",200000,54,0,0,0,90.,-135.,-180.,0,0,0,1,0,0)
IF LADENI==0
VODA
ENDIF
X4.543 Y-3. Z61.213 D1
M8
M7
G0 Z15.
Z2.
G1 Z-0.55 F1000.
G41 X6.543 Y-11.
G3 X17.543 Y0. I0. J11.
I-17.543 J0.
X17.446 Y1.835 I-17.543 J0.
X5.356 Y11.624 I-10.939 J-1.151
G40 G1 X4.204 Y3.459
G0 Z15.
Z61.213
M9
M5
CYCLE800()
G_BACK_TUNNEL
CYCLE832(0,_OFF,1)
M1

IF(DWI_PARTTYPE_WORKAREA==7) GOTOF BEZ_SONDY
IF $P_SEARCH==1 GOTOF BEZ_SONDY

; KONTROLA PRUMERU o33,7 

T="TOUCH_PROBE" S100 F1000
M6
D1
G54
G_BACK_TUNNEL
CYCLE800(0,"TC_GROB",200000,54,0,0,0,-90,-45,0,0,0,0,1,0,0)
G0 X0. Y0. 
M1
G0 Z35.

DIRA_MERENI(33.7,42,33.785,33.72,33.73,0.005,"SONDA_SG202060",9)

CYCLE800()

BEZ_SONDY:

G_BACK_TUNNEL
SUPA X=X_HOMEPOS Y=Y_HOMEPOS A=A_HOMEPOS B=B_HOMEPOS


M_CPL_1_RTB_RELEASE M_CPL_2_RTB_RELEASE M_CPL_3_RTB_RELEASE
M_CPL_4_RTB_RELEASE M_CPL_5_RTB_RELEASE M_CPL_6_RTB_RELEASE

IF(DWI_PARTTYPE_WORKAREA==1) GOTOF POCITADLO
M97
POCITADLO:

O_PROG_READY=1
_PROGRAMMOK:

M=QU(90) M=QU(92); VYPNUT ODSTAVANIE A DOPRAVNIK TRIESOK
M60; VYMENA PALETY
M31
M25

M30


SONDOVANI_OP10:

$P_UIFR[1]=CTRANS(X,-180.084,Y,207.4,Z,0) ; ZAPSANI TEOR. HODNOT DO NB

T="TOUCH_PROBE" S100 F1000
M6
D1
G54
G_BACK_TUNNEL
CYCLE800(0,"TC_GROB",200000,54,0,0,0,-90,-45,0,0,0,0,1,0,0)

M0 ; MERIT S UPNUTYM KUSEM !!!

;------------- ZETKO: MERENI JEDNOHO BODU ---------------------------
G0 X-42. Y-51. 
G0 Z65.
STOPRE
M38 ; pustit sondu
G1 MEAS=1 Z=5 F1000
IF $AC_MEA[1]==1 GOTOF BOURACKA
ENDIF
; cyklus mereni souradnice Z, Z-8.8, chod 25mm, jemne
CYCLE978(100,1,,1,-8.8,25,5,3,2,1,"",,0,1.01,1.01,-1.01,0.34,1,0,,1,1)
G0 Z20.

;------------ X: MERENI DRAZKY -----------------------------------

G0 X0. Y70.
Z40 D1
STOPRE
M38 ; pustit sondu
G1 MEAS=1 Z=-20 F1500
IF $AC_MEA[1]==1 GOTOF BOURACKA
ENDIF
; cyklus mereni DRAZKY X, X0, sirka 52mm, jemne
CYCLE977(103,1,,1,52,,,10,5,0,1,1,,1,1,"",,0,1.01,1.01,-1.01,0.34,1,0,,1,1)
G0 Z20.

;------------ YPSILON: MERENI PERA --------------------------
G0 X0. Y0.
STOPRE
M38 ; pustit sondu
G1 MEAS=1 Z=20 F1000
IF $AC_MEA[1]==1 GOTOF BOURACKA
ENDIF
; cyklus mereni DRAZKY Y, Y0, jemne, ponor 24, sirka 90
CYCLE977(104,1,,1,90,,,10,5,0,24,1,,2,1,"",,0,1.01,1.01,-1.01,0.34,1,0,,1,1)
G0 Z50

;------------- KONEC -------------------------------------
G_BACK_TUNNEL
CYCLE800()
SUPA X=X_HOMEPOS Y=Y_HOMEPOS A=A_HOMEPOS B=B_HOMEPOS
M30


SONDOVANI_OP20:

$P_UIFR[2]=CTRANS(X,179.164,Y,205.067,Z,0) ; ZAPSANI TEOR. HODNOT DO NB

T="TOUCH_PROBE" S100 F1000
M6
D1
G55
G_BACK_TUNNEL
CYCLE800(0,"TC_GROB",200000,54,0,0,0,90,-45,0,0,0,0,1,0,0)

M0 ; MERIT  BEZ  KUSU !!!

;------------- ZETKO: MERENI JEDNOHO BODU ---------------------------
G0 X-30. Y-5. 
G0 Z50.
STOPRE
M38 ; pustit sondu
G1 MEAS=1 Z=10 F1500
IF $AC_MEA[1]==1 GOTOF BOURACKA
ENDIF
; cyklus mereni souradnice Z, Z-8, chod 25mm, jemne
CYCLE978(100,2,,1,-8,25,5,3,2,1,"",,0,1.01,1.01,-1.01,0.34,1,0,,1,1)
G0 Z20.

CYCLE800()
G_BACK_TUNNEL
M1

;------------- KONEC -------------------------------------
G_BACK_TUNNEL
CYCLE800()
SUPA X=X_HOMEPOS Y=Y_HOMEPOS A=A_HOMEPOS B=B_HOMEPOS
M30


BOURACKA:
LOOP
MSG("KOLIZE SONDY")
G4 F10
ENDLOOP