;_N_57_MPF MERENI DIRY V PODPROGRAMU  
; UPRAVENE POSUVY T3, T4, T7, M7 u T4
; SG202066P00001
; E00
; PALETA 1
; 2022.05.31_PD475288.140B.20.POST
; 05.09.2022 AT 6:00

DEF BOOL LADENI=0 ;  0 ZAPINA OPLACH

EXTERN DIRA_MERENI(REAL , REAL , REAL , REAL , REAL ,REAL , STRING[16], INT)

; --- TOOL LIST ---
; T1 - SECO SQUARE D80
; T3 - SECO SQUARE D63
; T4 - HIGHFEED D40
; T5 - VRTAK KORUNKOVY D17
; T6 - FREZA TROCHOID D20 PT01050
; T7 - FREZA HM D20 PT00081
; T8 - FREZA HM D20 PT00075
; T9 - FREZA TROCHOID D12 PT0921
; T10 - FREZA TROCHOID D10 PT00920
; T11 - FREZA HIGHFEED D10 PT00098
; T12 - FREZA HM D6 PT00037
; T13 - VRTAK D5,56 PT00391
; T14 - VRTAK D3,7 PT00379
; T15 - OODHROTOVAC D10/90 PT00159
; T16 - OBOUSTR.ODHROT.D10/90 PT00196
; T17 - ZAVITNIK TVARECI M6 PT00462
; T18 - ZAVITNIK TVARECI M4 PT00459
; T39 - SONDA

; --- WFO LIST ---
;  G54 = X0. Y0. Z0.
;  G55 = X0. Y0. Z0.

G_RESET
FAST_TOOLCHANGE=1

KONTROLA1
CLAMP_01_00_02

;IF O_PROG_READY==1 GOTOF _PROGRAMMOK

CFTCP

G451

G0 G17 G40 G54 G90 G94 G710
M=QU(91) M=QU(93); ODSAVANIE+DOPRAVNIK TRIESOK

G_BACK_TUNNEL
M11
M21
SUPA X=X_HOMEPOS Y=Y_HOMEPOS A=A_HOMEPOS B=B_HOMEPOS
M1

;GOTOF SONDOVANI

CYCLE832(0.1,_FINISH,1)

;
; OP10_HRUB. CELO U M4
;
N3; SECO SQUARE D63
G17 G40 G94 G710
T3
M6
IF $P_SEARCH==1 GOTOF LEJBL1 ; preskoceni odpocitani kusu, kdyz jen vyhledavani
SETPIECE(1) ;odecte 1 pouziti
LEJBL1:
; G_TOOL_CHECK(140.,31.5,3.,1.,4.)
T5
M1
G54 G90 S1100 M3
CYCLE800(0,"TC_GROB",200000,54,0,0,0,90.,-135.,180.,0,0,0,1,0,0)
IF LADENI==0
VODA
ENDIF
G0 X-73. Y28.
X-73. Y28. Z29.078 D1
M7
Z2.5
G1 Z0.2 F1500.
X35. F1200.
G2 Y-28. I0. J-28.
G1 X-73.
G0 Z2.5
Z31.128
CYCLE800()
G_BACK_TUNNEL
;
; OP10_HRUB. CELO U D66
;
G17 G54 G90
CYCLE800(0,"TC_GROB",200000,54,-18.402,-18.402,0,90.,135.,-180.,0,0,0,1,0,0)
G0 X77.5 Y-3.818
X77.5 Y-3.818 Z29.582 D1
M7
Y-23.4 Z10.
G1 Z0.2 F1500.
G41 Y28.1 F1200.
X-69.5
G3 X-102.5 Y-4.9 I0. J-33.
G1 Y-74.8
G3 X-69.5 Y-107.8 I33. J0.
G1 X-52.949
G3 X-19.949 Y-74.8 I0. J33.
G1 Y-71.3
G2 X-19.749 Y-71.1 I0.2 J0.
G1 X19.749
G2 X19.949 Y-71.3 I0. J-0.2
G1 Y-76.8
G40 X71.449 Y-76.804
G0 Z10.
Y-26.076 Z60.728
CYCLE800()
G_BACK_TUNNEL
;
; OP10_HRUB. CELO U D35,5
;
G17 G54 G90
CYCLE800(0,"TC_GROB",200000,54,16.953,16.953,0,-90.,-135.,180.,0,0,0,1,0,0)
G0 X77.5 Y-23.4
X77.5 Y-23.4 Z49.166 D1
M7
Z10.
G1 Z0.2 F1500.
G41 Y28.1 F1200.
X-69.5
G3 X-102.5 Y-4.9 I0. J-33.
G1 Y-74.8
G3 X-69.5 Y-107.8 I33. J0.
G1 X-52.949
G3 X-19.949 Y-74.8 I0. J33.
G1 Y-71.3
G2 X-19.749 Y-71.1 I0.2 J0.
G1 X19.749
G2 X19.949 Y-71.3 I0. J-0.2
G1 Y-76.8
G40 X71.449 Y-76.804
G0 Z10.
Z111.458
CYCLE800()
G_BACK_TUNNEL
;
; OP20_HRUB CELO
;
G17 G55 G90
CYCLE800(0,"TC_GROB",200000,54,0,0,0,-90.,-135.,-180.,0,0,0,1,0,0)
G0 X-73. Y28.
X-73. Y28. Z27.876 D1
M7
Z10.
G1 Z3.067 F1500.
X35. F1200.
G2 Y-28. I0. J-28.
G1 X-73.
G0 Z2.867
Y28.
Z2.5
G1 Z1.633 F1500.
X35. F1200.
G2 Y-28. I0. J-28.
G1 X-73.
G0 Z2.5
Y28.
G1 Z0.2 F1500.
X35. F1200.
G2 Y-28. I0. J-28.
G1 X-73.
G0 Z2.5
Z25.826
CYCLE800()
G_BACK_TUNNEL
;
; OP10_HRUB. CELO U M4
;
G17 G54 G90
CYCLE800(0,"TC_GROB",200000,54,-0.725,-0.725,-34.9,0,-180.,135.,0,0,0,1,0,0)
G0 X-68. Y-8.9
X-68. Y-8.9 Z14.101 D1
M7
Z2.5
G1 Z1.35 F1500.
X30. F1200.
G2 Y-64.9 I0. J-28.
G1 X-68.
G0 Z2.5
Y-8.9
Z1.35
G1 Z0.2 F1500.
X30. F1200.
G2 Y-64.9 I0. J-28.
G1 X-68.
G0 Z2.5
Z14.101
CYCLE800()
G_BACK_TUNNEL
;
; OP10_HRUB. CELO U M4
;
G17 G54 G90
CYCLE800(0,"TC_GROB",200000,54,-0.725,-0.725,34.9,0,0,45.,0,0,0,1,0,0)
G0 X-68. Y-8.9
X-68. Y-8.9 Z14.099 D1
M7
Z2.5
G1 Z1.35 F1500.
X30. F1200.
G2 Y-64.9 I0. J-28.
G1 X-68.
G0 Z2.5
Y-8.9
Z1.35
G1 Z0.2 F1500.
X30. F1200.
G2 Y-64.9 I0. J-28.
G1 X-68.
G0 Z2.5
Z14.099
M9
CYCLE800()
G_BACK_TUNNEL
M5
M1

;
; OP10_PREDVRTANI D17 OD D66
;
N5; VRTAK KORUNKOVY D17
G17 G40 G94 G710
T5
M6
; G_TOOL_CHECK(170.7,8.5,3.,1.,4.)
T7
M1
G54 G90 F600. S2100 M3
CYCLE800(0,"TC_GROB",200000,54,-18.402,-18.402,0,90.,135.,-180.,0,0,0,1,0,0)
M10
M20
IF LADENI==0
VODA
ENDIF
G0 X0. Y-9.361
X0. Y-9.361 Z28.039 D1
M7
Y-34.9 Z2.5
; RETRACTION PLANE RTP = 2.5
; REFERENCE PLANE RFP = 2.5
; SAFETY CLEARANCE SDIS = 0
; DRILLING DEPTH PLANE DP = -56.
MCALL CYCLE81(2.5,2.5,0,-56.,,,0,0,0)
X0. Y-34.9
MCALL
G0 Z2.5
Y-9.361 Z28.039
M9
M11
M21
CYCLE800()
G_BACK_TUNNEL
M5
M1

;
; OP10_FINISH OBVOD
;
N7; FREZA HM D20 PT00081
G17 G40 G94 G710
T7
M6
; G_TOOL_CHECK(160.,10.,3.,1.,4.)
T4
M1
G54 G90 S1200 M3
CYCLE800(0,"TC_GROB",200000,54,-18.402,-18.402,0,90.,135.,-180.,0,0,0,1,0,0)
M10
M20
IF LADENI==0
VODA
ENDIF
G0 X-68. Y-76.1
X-68. Y-76.1 Z2.5 D1
M8
M7
G1 Z-50.5 F3000.
G41 X-35. F500.
Y0.1
X35.
Y-76.1
G40 X68.
G0 Z2.5
M11
M21
CYCLE800()
G_BACK_TUNNEL
;
; OP20_FINISH OBVOD
;
G17 G55 G90 S800
CYCLE800(0,"TC_GROB",200000,54,16.9,-16.9,0,-90.,135.,-180.,0,0,0,1,0,0)
G0 X-39.9 Y33.
X-39.9 Y33. Z2.5 D1
M8
M7
G1 Z-50.5 F3000.
G41 Y0. F300.
X39.9
G40 Y33.
G0 Z2.5
M9
CYCLE800()
G_BACK_TUNNEL
M5
M1

;
; OP10_HRUB D66
;
N4; HIGHFEED D40
G17 G40 G94 G710
T4
M6
; G_TOOL_CHECK(140.,20.,3.,1.,4.)
T13
M1
G54 G90 S1700 M3
CYCLE800(0,"TC_GROB",200000,54,-18.402,-18.402,0,90.,135.,-180.,0,0,0,1,0,0)
M10
M20
IF LADENI==0
VODA
ENDIF
G0 X0. Y-3.467
X0. Y-3.467 Z35.683 D1
M8
M7
Y-36.65 Z2.5
G1 Z0.5 F1500.
G41 Y-2.05
G3 X0. Y-2.05 Z-0.293 I0. J-32.85 F5400.
X0. Y-2.05 Z-1.086 I0. J-32.85
X0. Y-2.05 Z-1.879 I0. J-32.85
X0. Y-2.05 Z-2.671 I0. J-32.85
X0. Y-2.05 Z-3.464 I0. J-32.85
X0. Y-2.05 Z-4.257 I0. J-32.85
X0. Y-2.05 Z-5.05 I0. J-32.85
X0. Y-2.05 Z-5.843 I0. J-32.85
X0. Y-2.05 Z-6.636 I0. J-32.85
X0. Y-2.05 Z-7.429 I0. J-32.85
X0. Y-2.05 Z-8.221 I0. J-32.85
X0. Y-2.05 Z-9.014 I0. J-32.85
X0. Y-2.05 Z-9.807 I0. J-32.85
X0. Y-2.05 Z-10.6 I0. J-32.85
X0. Y-2.05 Z-11.393 I0. J-32.85
X0. Y-2.05 Z-12.186 I0. J-32.85
X0. Y-2.05 Z-12.979 I0. J-32.85
X0. Y-2.05 Z-13.771 I0. J-32.85
X0. Y-2.05 Z-14.564 I0. J-32.85
X0. Y-2.05 Z-15.357 I0. J-32.85
X0. Y-2.05 Z-16.15 I0. J-32.85
X0. Y-2.05 Z-16.943 I0. J-32.85
X0. Y-2.05 Z-17.736 I0. J-32.85
X0. Y-2.05 Z-18.529 I0. J-32.85
X0. Y-2.05 Z-19.321 I0. J-32.85
X0. Y-2.05 Z-20.114 I0. J-32.85
X0. Y-2.05 Z-20.907 I0. J-32.85
X0. Y-2.05 Z-21.7 I0. J-32.85
X0. Y-2.05 Z-22.493 I0. J-32.85
X0. Y-2.05 Z-23.286 I0. J-32.85
X0. Y-2.05 Z-24.079 I0. J-32.85
X0. Y-2.05 Z-24.871 I0. J-32.85
X0. Y-2.05 Z-25.664 I0. J-32.85
X0. Y-2.05 Z-26.457 I0. J-32.85
X0. Y-2.05 Z-27.25 I0. J-32.85
X0. Y-2.05 Z-28.043 I0. J-32.85
X0. Y-2.05 Z-28.836 I0. J-32.85
X0. Y-2.05 Z-29.629 I0. J-32.85
X0. Y-2.05 Z-30.421 I0. J-32.85
X0. Y-2.05 Z-31.214 I0. J-32.85
X0. Y-2.05 Z-32.007 I0. J-32.85
X0. Y-2.05 Z-32.8 I0. J-32.85
I0. J-32.85
G40 G1 Y-36.65
G0 Z2.5
Y-3.467 Z35.683
M9
M11
M21
CYCLE800()
G_BACK_TUNNEL
M5
M1

;
; OP10_VRTANI D5,56 POD M6 U D66
;
N13; VRTAK D5,56 PT00391
G17 G40 G94 G710
T13
M6
; G_TOOL_CHECK(150.,2.78,3.,1.,4.)
T14
M1
G54 G90 F1600. S8500 M3
CYCLE800(0,"TC_GROB",200000,54,-18.402,-18.402,0,90.,135.,-180.,0,0,0,1,0,0)
M10
M20
IF LADENI==0
VODA
ENDIF
G0 X-27. Y-24.68
X-27. Y-24.68 Z39.72 D1
M7
Y-61.9 Z2.5
; RETRACTION PLANE RTP = 2.5
; REFERENCE PLANE RFP = 0
; SAFETY CLEARANCE SDIS = 2.5
; DRILLING DEPTH PLANE DP = -29.
MCALL CYCLE81(2.5,0,2.5,-29.,,,0,0,0)
X-27. Y-61.9
Y-7.9
X27.
Y-61.9
MCALL
G0 Z2.5
Y-24.68 Z39.72
M11
M21
CYCLE800()
G_BACK_TUNNEL
;
; OP10_VRTANI D5,56 POD M6 U D35,5
;
G17 G54 G90 F1600.
CYCLE800(0,"TC_GROB",200000,54,16.953,16.953,0,-90.,-135.,180.,0,0,0,1,0,0)
M10
M20
G0 X-27. Y-61.9
X-27. Y-61.9 Z76.939 D1
M7
Z2.5
; RETRACTION PLANE RTP = 2.5
; REFERENCE PLANE RFP = 0
; SAFETY CLEARANCE SDIS = 2.5
; DRILLING DEPTH PLANE DP = -29.
MCALL CYCLE81(2.5,0,2.5,-29.,,,0,0,0)
X-27. Y-61.9
Y-7.9
X27.
Y-61.9
MCALL
G0 Z2.5
Z76.939
M11
M21
CYCLE800()
G_BACK_TUNNEL
;
; OP10_VRTANI D5,56 POD M6 BOK
;
G17 G54 G90 F1600.
CYCLE800(0,"TC_GROB",200000,54,-0.725,-0.725,-34.9,0,-180.,135.,0,0,0,1,0,0)
G0 X1. Y-8.
X1. Y-8. Z14.101 D1
M7
Z2.5
; RETRACTION PLANE RTP = 2.5
; REFERENCE PLANE RFP = 0
; SAFETY CLEARANCE SDIS = 2.5
; DRILLING DEPTH PLANE DP = -12.1
MCALL CYCLE81(2.5,0,2.5,-12.1,,,0,0,0)
X1. Y-8.
MCALL
G0 Z2.5
Z14.101
CYCLE800()
G_BACK_TUNNEL
;
; OP10_VRTANI D5,56 PROCISTENI OTREPU
;
G17 G54 G90 F1600.
CYCLE800(0,"TC_GROB",200000,54,-18.402,-18.402,0,90.,135.,-180.,0,0,0,1,0,0)
G0 X-27. Y2.32
X-27. Y2.32 Z12.72 D1
M7
Y-7.9 Z2.5
; RETRACTION PLANE RTP = 2.5
; REFERENCE PLANE RFP = 0
; SAFETY CLEARANCE SDIS = 2.5
; DRILLING DEPTH PLANE DP = -29.
MCALL CYCLE81(2.5,0,2.5,-29.,,,0,0,0)
X-27. Y-7.9
MCALL
G0 Z2.5
Y2.32 Z12.72
M9
CYCLE800()
G_BACK_TUNNEL
M5
M1

;
; OP10_VRTANI D3,7 POD M4
;
N14; VRTAK D3,7 PT00379
G17 G40 G94 G710
T14
M6
; G_TOOL_CHECK(130.,1.85,3.,1.,4.)
T11
M1
G54 G90 F1200. S15500 M3
CYCLE800(0,"TC_GROB",200000,54,0,0,0,90.,-135.,180.,0,0,0,1,0,0)
IF LADENI==0
VODA
ENDIF
G0 X-21.5 Y13.975
X-21.5 Y13.975 Z24.448 D1
M7
Z2.5
; RETRACTION PLANE RTP = 2.5
; REFERENCE PLANE RFP = 0
; SAFETY CLEARANCE SDIS = 2.5
; DRILLING DEPTH PLANE DP = -11.5
; 1ST PECK DEPTH FDPR = 2.
; PECK DEGRESSION AMOUNT DAM = 0
; FEED RATE FACTOR FRF = 1.
; CHIP BREAKER CYCLE VARI = 0
; DWELL TIME AT BOTTOM _DTD = 0
MCALL CYCLE83(2.5,0,2.5,-11.5,,,2.,0,,,1,0,0,,0.2,0,,0,0,0)
X-21.5 Y13.975
X21.5
MCALL
G0 Z2.5
Z24.448
M9
CYCLE800()
G_BACK_TUNNEL
M5
M1

;
; OP10_HRUB MEZIKRUZI
;
N11; FREZA HIGHFEED D10 PT00098
G17 G40 G94 G710
T11
M6
; G_TOOL_CHECK(162.,5.,3.,1.,4.)
T9
M1
G54 G90 S6000 M3
CYCLE800(0,"TC_GROB",200000,54,-18.402,-18.402,0,90.,135.,-180.,0,0,0,1,0,0)
IF LADENI==0
VODA
ENDIF
G0 X0. Y3.563
X0. Y3.563 Z13.863 D1
M8
M7
Y-7.8 Z2.5
G1 Z-32. F5000.
G2 X0. Y-7.8 Z-32.483 I0. J-27.1 F7000.
X0. Y-7.8 Z-32.967 I0. J-27.1
X0. Y-7.8 Z-33.45 I0. J-27.1
X0. Y-7.8 Z-33.933 I0. J-27.1
X0. Y-7.8 Z-34.417 I0. J-27.1
X0. Y-7.8 Z-34.9 I0. J-27.1
X0. Y-7.8 Z-35.383 I0. J-27.1
X0. Y-7.8 Z-35.867 I0. J-27.1
X0. Y-7.8 Z-36.35 I0. J-27.1
X0. Y-7.8 Z-36.833 I0. J-27.1
X0. Y-7.8 Z-37.317 I0. J-27.1
X0. Y-7.8 Z-37.8 I0. J-27.1
I0. J-27.1
G0 Z2.5
Y3.563 Z13.863
M9
CYCLE800()
G_BACK_TUNNEL
M5
M1

;
; OP10_HRUB D35,5
;
N9; FREZA TROCHOID D12 PT0921
G17 G40 G94 G710
T9
M6
; G_TOOL_CHECK(140.,6.,3.,1.,4.)
T6
M1
G54 G90 S5000 M3
CYCLE800(0,"TC_GROB",200000,54,16.953,16.953,0,-90.,-135.,180.,0,0,0,1,0,0)
IF LADENI==0
VODA
ENDIF
G0 X0. Y-32.9
X0. Y-32.9 Z52.171 D1
M7
Z2.5
G1 Z-19. F5000.
G3 Y-37.378 I0. J-2.239 F2200.
Y-31.945 I0. J2.717
Y-38.332 I0. J-3.194
Y-30.99 I0. J3.671
Y-39.287 I0. J-4.149
Y-30.035 I0. J4.626
Y-40.242 I0. J-5.104
Y-29.08 I0. J5.581
Y-41.197 I0. J-6.059
Y-28.125 I0. J6.536
Y-42.152 I0. J-7.014
Y-27.17 I0. J7.491
Y-43.107 I0. J-7.969
Y-26.215 I0. J8.446
Y-44.062 I0. J-8.924
Y-25.26 I0. J9.401
Y-45.017 I0. J-9.879
Y-24.305 I0. J10.356
Y-45.972 I0. J-10.834
Y-23.35 I0. J11.311
;
; OP10_DOHRUB D35,5
;
G3 I0. J-11.55 F2200.
G0 Z2.5
Z42.621
M9
CYCLE800()
G_BACK_TUNNEL
M5
M1

;
; OP10_SEMIFINISH D35,5
;
N6; FREZA TROCHOID D20 PT01050
G17 G40 G94 G710
T6
M6
; G_TOOL_CHECK(170.,10.,3.,1.,4.)
T10
M1
G54 G90 S3000 M3
CYCLE800(0,"TC_GROB",200000,54,-18.402,-18.402,0,90.,135.,-180.,0,0,0,1,0,0)
IF LADENI==0
VODA
ENDIF
G0 X0. Y-7.062
X0. Y-7.062 Z30.333 D1
M7
Y-34.895 Z2.5
G1 Z-50.8 F5000.
G41 Y-17.335 F1200.
G3 I0. J-17.565
X-2.315 Y-17.488 I0. J-17.565
G40 G1 X-0.001 Y-34.895
G0 Z-44.
;
; OP10_SEMIFINISH D39H7
;
G90
G0 X0. Y-34.92
G1 Z-43.8 F5000.
G41 Y-15.57 F600.
G3 I0. J-19.33
X-2.068 Y-15.681 I0. J-19.33
G40 G1 X0.002 Y-34.92
G0 Z-32.8
;
; OP10_SEMIFINISH D66
;
G90
G0 X0. Y-35.025
G1 Z-32.6 F5000.
G41 Y-2.025 F1200.
G3 I0. J-32.875
X-1.437 Y-2.056 I0. J-32.875
G40 G1 X0.005 Y-35.025
G0 Z22.
;
; OP10_HRUB D88
;
G90
G0 X-36.102 Y-87.924
G1 Z-1.85 F5000.
G41 X-24.846 Y-71.392 F1200.
G2 X-40.2 Y-53.147 I24.846 J36.492
G0 Y-16.653
G2 X-18.466 Y5.2 I40.2 J-18.247
G0 X18.466
G2 X40.2 Y-16.653 I-18.466 J-40.1
G0 Y-53.147
G2 X24.846 Y-71.392 I-40.2 J18.247
G40 G1 X36.102 Y-87.924
G0 Z22.
Y-43.327 Z66.598
M9
CYCLE800()
G_BACK_TUNNEL
M5
M1

;
; OP10_FINISH D66
;
N10; FREZA TROCHOID D10 PT00920
G17 G40 G94 G710
T10
M6
; G_TOOL_CHECK(162.,5.,3.,1.,4.)
T1
M1
G54 G90 S2500 M3
CYCLE800(0,"TC_GROB",200000,54,-18.402,-18.402,0,90.,135.,-180.,0,0,0,1,0,0)
IF LADENI==0
VODA
ENDIF
G0 X5. Y-0.527
X5. Y-0.527 Z18.798 D1
M7
Y-16.825 Z2.5
G1 Z-32.8 F3000.
G41 X10. Y-11.825 F1600.
G3 X0. Y-1.825 I-10. J0.
X0. Y-1.825 Z-33.84 I0. J-33.075
X0. Y-1.825 Z-34.88 I0. J-33.075
X0. Y-1.825 Z-35.92 I0. J-33.075
X0. Y-1.825 Z-36.96 I0. J-33.075
X0. Y-1.825 Z-38. I0. J-33.075
I0. J-33.075 F1300.
G40 G1 Y-7.025
;
; OP10_HRUB D42,8
;
G90 S2800
G0 Y-7.67
G41 G1 Y-12.87 F1400.
G2 Y-56.615 I0. J-21.872
Y-13.5 I0. J21.558
G40 G1 Y-8.3
;
; OP10_FINISH D42,8
;
G41 G1 Y-13.5 F1400.
G2 I0. J-21.4
I0. J-21.4
G40 G1 Y-8.3
G0 Z-33.
;
; OP10_FINISH Z-33
;
G90 S3500
G0 Y-10.135
G41 G1 Y-17.135 F1800.
G2 I0. J-17.765
I0. J-17.765
G40 G1 Y-10.135
G0 Z2.5
Y2.818 Z15.453
M9
CYCLE800()
G_BACK_TUNNEL
M5
M1

;
; OP10_FINISH CELO U D66
;
N1; SECO SQUARE D80
G17 G40 G94 G710
T1
M6
; G_TOOL_CHECK(110.,40.,3.,1.,4.)
T15
M1
G54 G90 S1500 M3
CYCLE800(0,"TC_GROB",200000,54,-18.402,-18.402,0,90.,135.,-180.,0,0,0,1,0,0)
IF LADENI==0
VODA
ENDIF
G0 X-76.049 Y-15.845
X-76.049 Y-15.845 Z58.455 D1
M8
M7
Y-71.8 Z2.5
G1 Z0. F1600.
G41 X-21.049 F1000.
Y-71.2
G2 X-20.849 Y-71. I0.2 J0.
G1 X20.849
G2 X21.049 Y-71.2 I0. J-0.2
G1 Y-71.8
G40 X76.049
G0 Z2.5
Y-15.845 Z58.455
CYCLE800()
G_BACK_TUNNEL
;
; OP10_FINISH U D35,5
;
G17 G54 G90
CYCLE800(0,"TC_GROB",200000,54,16.953,16.953,0,-90.,-135.,180.,0,0,0,1,0,0)
G0 X-81.049 Y-71.8
X-81.049 Y-71.8 Z108.946 D1
M8
M7
Z2.5
G1 Z0. F1600.
G41 X-21.049 F1000.
Y-71.2
G2 X-20.849 Y-71. I0.2 J0.
G1 X20.849
G2 X21.049 Y-71.2 I0. J-0.2
G1 Y-71.8
G40 X81.049
G0 Z2.5
Z108.948
M9
CYCLE800()
G_BACK_TUNNEL
M5
M1

;
; OP10_SRAZENI M4
;
N15; ODHROTOVAC D10/90 PT00159
G17 G40 G94 G710
T15
M6
; G_TOOL_CHECK(130.,5.,3.,1.,4.)
T16
M1
G54 G90 F350. S5000 M3
CYCLE800(0,"TC_GROB",200000,54,0,0,0,90.,-135.,180.,0,0,0,1,0,0)
IF LADENI==0
VODA
ENDIF
G0 X-21.5 Y13.975
X-21.5 Y13.975 Z23.271 D1
M7
Z2.5
; RETRACTION PLANE RTP = 2.5
; REFERENCE PLANE RFP = 0
; SAFETY CLEARANCE SDIS = 2.5
; DRILLING DEPTH PLANE DP = -2.3
MCALL CYCLE81(2.5,0,2.5,-2.3,,,0,0,0)
X-21.5 Y13.975
X21.5
MCALL
G0 Z2.5
;
; OP10_SRAZENI BOKU U M4
;
G90 S6000
G0 X47.7 Y28.975
G1 Z-3. F3000.
G41 X32.7 F1600.
Y-28.975
G40 X47.7
G0 Z2.5
X-47.7
G1 Z-3. F3000.
G41 X-32.7 F1600.
Y28.975
G40 X-47.7
G0 Z2.5
Z8.271
CYCLE800()
G_BACK_TUNNEL
;
; OP10_SRAZENI M6 U D66
;
G17 G54 G90 F350. S2500
CYCLE800(0,"TC_GROB",200000,54,-18.402,-18.402,0,90.,135.,-180.,0,0,0,1,0,0)
G0 X-27. Y-25.564
X-27. Y-25.564 Z38.836 D1
M7
Y-61.9 Z2.5
; RETRACTION PLANE RTP = 2.5
; REFERENCE PLANE RFP = 0
; SAFETY CLEARANCE SDIS = 2.5
; DRILLING DEPTH PLANE DP = -3.4
MCALL CYCLE81(2.5,0,2.5,-3.4,,,0,0,0)
X-27. Y-61.9
Y-7.9
X27.
Y-61.9
MCALL
G0 Z2.5
;
; OP10_SRAZENI D66
;
G90 S6000
G0 X0. Y-14.525
G1 Z-3. F3000.
G41 Y0.475 F1600.
G3 I0. J-35.375
X-2.328 Y0.398 I0. J-35.375
G40 G1 X-1.341 Y-14.569
G0 Z2.5
;
; OP10_SRAZENI OBVODU U D88
;
G90
G0 X-31.561 Y-80.124
G1 Z-1.8 F3000.
G41 X-22.977 Y-67.823 F1600.
G2 X-31.4 Y-59.918 I22.977 J32.923
G1 Y-9.883
G2 X-25.017 Y-3.5 I31.4 J-25.017
G1 X25.018
G2 X31.4 Y-9.882 I-25.018 J-31.4
G1 Y-59.918
G2 X22.977 Y-67.823 I-31.4 J25.018
G40 G1 X31.561 Y-80.124
G0 Z2.5
Y-34.676 Z47.947
CYCLE800()
G_BACK_TUNNEL
;
; OP10_SRAZENI M6 NA BOKU
;
G17 G54 G90 F350. S2500
CYCLE800(0,"TC_GROB",200000,54,-0.725,-0.725,-34.9,0,-180.,135.,0,0,0,1,0,0)
G0 X1. Y-8.
X1. Y-8. Z14.101 D1
M7
Z2.5
; RETRACTION PLANE RTP = 2.5
; REFERENCE PLANE RFP = 0
; SAFETY CLEARANCE SDIS = 2.5
; DRILLING DEPTH PLANE DP = -3.4
MCALL CYCLE81(2.5,0,2.5,-3.4,,,0,0,0)
X1. Y-8.
MCALL
G0 Z2.5
Z14.101
CYCLE800()
G_BACK_TUNNEL
;
; OP10_SRAZENI M6 U D35,5
;
G17 G54 G90 F350.
CYCLE800(0,"TC_GROB",200000,54,16.953,16.953,0,-90.,-135.,180.,0,0,0,1,0,0)
G0 X-27. Y-61.9
X-27. Y-61.9 Z75.171 D1
M7
Z2.5
; RETRACTION PLANE RTP = 2.5
; REFERENCE PLANE RFP = 0
; SAFETY CLEARANCE SDIS = 2.5
; DRILLING DEPTH PLANE DP = -3.4
MCALL CYCLE81(2.5,0,2.5,-3.4,,,0,0,0)
X-27. Y-61.9
Y-7.9
X27.
Y-61.9
MCALL
G0 Z25.
;
; OP10_SRAZENI OBVOD U D35,5
;
G90 S6000
G0 X-47.7 Y-74.1
Z2.5
G1 Z-3. F3000.
G41 X-32.7 F1600.
Y-2.2
X32.7
Y-74.1
G40 X47.7
G0 Z2.5
;
; OP10_SRAZENI OBVOD U D35,5
;
G90
G0 X0. Y-29.835
G1 Z-3. F3000.
G41 Y-14.835 F1600.
G3 I0. J-20.065
X-2.656 Y-15.012 I0. J-20.065
G40 G1 X-0.67 Y-29.88
G0 Z2.5
Z43.151
CYCLE800()
G_BACK_TUNNEL
;
; OP20_SRAZENI  ELO
;
G17 G55 G90
CYCLE800(0,"TC_GROB",200000,54,0,0,0,-90.,-135.,-180.,0,0,0,1,0,0)
G0 X-30.878 Y38.9
X-30.878 Y38.9 Z3.196 D1
M7
Z2.5
G1 Z-3. F3000.
G41 Y23.9 F1600.
X32.7
Y-21.7
X-32.7
Y28.9
G40 X-47.7
G0 Z2.5
Z12.357
M9
CYCLE800()
G_BACK_TUNNEL
M5
M1

;
; OP10_SRAZENI 1MM NA D42,8
;
N16; OBOUSTR.ODHROT.D10/90 PT00196
G17 G40 G94 G710
T16
M6
; G_TOOL_CHECK(187.,5.,3.,1.,4.)
T12
M1
G54 G90 S3000 M3
CYCLE800(0,"TC_GROB",200000,54,-18.402,-18.402,0,90.,135.,-180.,0,0,0,1,0,0)
IF LADENI==0
VODA
ENDIF
G0 X0. Y3.386
X0. Y3.386 Z14.886 D1
M7
Y-9. Z2.5
G1 Z-31.5 F3000.
G41 Y-15. F1600.
G2 X0. Y-15. Z-32. I0. J-19.9
X0. Y-15. Z-32.5 I0. J-19.9
I0. J-19.9
X1.597 Y-15.064 I0. J-19.9
G40 G1 X2.078 Y-9.084
G0 Z2.5
;
; OP10_SRAZENI D39H7
;
G90
G0 X0. Y-20.57
G1 Z-32.5 F3000.
G41 Y-14.57 F1600.
G3 I0. J-20.33
G40 G1 Y-20.57
G0 Z2.5
;
; OP10_SRAZENI NA D35,5
;
G90
G0 Y-22.335
G1 Z-43.5 F3000.
G41 Y-16.335 F1600.
G3 I0. J-18.565
G40 G1 Y-22.335
G0 Z2.5
Y-3.282 Z21.553
M9
CYCLE800()
G_BACK_TUNNEL
M5
M1

;
; OP10_SRAZENI PLOSEK
;
N12; FREZA HM D6 PT00037
G17 G40 G94 G710
T12
M6
; G_TOOL_CHECK(120.,3.,3.,1.,4.)
T8
M1
G54 G90 S9500 M3
CYCLE800(0,"TC_GROB",200000,54,-16.847,0,0,90.,180.,-180.,0,0,0,1,0,0)
IF LADENI==0
VODA
ENDIF
G0 X-39.624 Y-12.71
X-39.624 Y-12.71 Z10.94 D1
M7
Z5.
G1 Z0. F5000.
G41 X-40.733 Y-15.765 F1500.
X-38.412 Y-17.897
X-27.852 Y-18.002
X-23.144 Y-12.877
X-23.761 Y-6.382
X-26.082 Y-4.25
G40 X-29.032 Y-5.614
G0 Z5.
;
; OP10_SRAZENI PLOSEK
;
G90
G0 X31.738 Y-8.559
G1 Z0. F5000.
G41 X28.788 Y-7.196 F1500.
X26.467 Y-9.328
X25.85 Y-15.823
X30.558 Y-20.948
X41.118 Y-20.842
X43.439 Y-18.71
G40 X42.33 Y-15.655
G0 Z5.
Z10.94
CYCLE800()
G_BACK_TUNNEL
;
; OP10_SRAZENI PLOSEK
;
G17 G54 G90
CYCLE800(0,"TC_GROB",200000,54,-20.762,-20.762,29.362,-35.264,30.,-54.736,0,0,0,1,0,0)
G0 X-9.493 Y15.341
X-9.493 Y15.341 Z15.117 D1
M7
X-4.724 Y11.968 Z5.
G1 Z0. F5000.
G41 X-5.833 Y8.913 F1500.
X-3.512 Y6.781
X7.048 Y6.676
X11.756 Y11.801
X11.139 Y18.296
X8.818 Y20.428
G40 X5.868 Y19.065
G0 Z5.
;
; OP10_SRAZENI PLOSEK
;
G90
G0 X66.638 Y16.119
G1 Z0. F5000.
G41 X63.688 Y17.482 F1500.
X61.367 Y15.35
X60.75 Y8.855
X65.458 Y3.73
X76.018 Y3.836
X78.339 Y5.968
G40 X77.23 Y9.023
G0 Z5.
X71.309 Y13.21 Z17.561
CYCLE800()
G_BACK_TUNNEL
;
; OP10_SRAZENI PLOSEK
;
G17 G54 G90
CYCLE800(0,"TC_GROB",200000,54,-20.762,-20.762,-29.362,35.264,150.,-125.264,0,0,0,1,0,0)
G0 X-69.644 Y15.419
X-69.644 Y15.419 Z15.353 D1
M7
X-74.524 Y11.968 Z5.
G1 Z0. F5000.
G41 X-75.633 Y8.913 F1500.
X-73.312 Y6.781
X-62.752 Y6.676
X-58.044 Y11.801
X-58.661 Y18.296
X-60.982 Y20.428
G40 X-63.932 Y19.065
G0 Z5.
;
; OP10_SRAZENI PLOSEK
;
G90
G0 X-3.162 Y16.119
G1 Z0. F5000.
G41 X-6.112 Y17.482 F1500.
X-8.433 Y15.35
X-9.05 Y8.855
X-4.342 Y3.73
X6.218 Y3.836
X8.539 Y5.968
G40 X7.43 Y9.023
G0 Z5.
X11.883 Y12.171 Z14.446
CYCLE800()
G_BACK_TUNNEL
;
; OP20_SRAZENI PLOSEK
;
G17 G55 G90
CYCLE800(0,"TC_GROB",200000,54,0,16.9,0,-87.913,-90.,177.913,0,0,0,1,0,0)
G0 X39.624 Y12.763
X39.624 Y12.763 Z12.867 D1
M7
Z5.
G1 Z0. F5000.
G41 X40.733 Y15.818 F1500.
X38.412 Y17.95
X27.852 Y18.055
X23.144 Y12.93
X23.761 Y6.435
X26.082 Y4.303
G40 X29.032 Y5.667
G0 Z5.
;
; OP20_SRAZENI PLOSEK
;
G90
G0 X-31.738 Y8.612
G1 Z0. F5000.
G41 X-28.788 Y7.249 F1500.
X-26.467 Y9.381
X-25.85 Y15.876
X-30.558 Y21.001
X-41.118 Y20.895
X-43.439 Y18.763
G40 X-42.33 Y15.708
G0 Z5.
Z12.867
M9
CYCLE800()
G_BACK_TUNNEL
M5
M1

;
; OP10_FINISH D35,5
;
N8; FREZA HM D20 PT00075
G17 G40 G94 G710
T8
M6
; G_TOOL_CHECK(155.,10.,3.,1.,4.)
T18
M1
G54 G90 S2500 M3
CYCLE800(0,"TC_GROB",200000,54,-18.402,-18.402,0,90.,135.,-180.,0,0,0,1,0,0)
IF LADENI==0
VODA
ENDIF
G0 X0. Y-7.182
X0. Y-7.182 Z30.453 D1
M7
Y-35.135 Z2.5
G1 Z-50.5 F5000.
G41 Y-17.135 F800.
G3 I0. J-17.765
I0. J-17.765
X-2.282 Y-17.282 I0. J-17.765
G40 G1 X0.03 Y-35.133
G0 Z-44.
;
; OP10_FINISH D39H7
;
G90
G0 X0. Y-35.37
G41 G1 Y-15.37 F800.
G3 I0. J-19.53
I0. J-19.53
X-2.046 Y-15.477 I0. J-19.53
G40 G1 X0.049 Y-35.367
G0 Z22.
;
; OP10_FINISH D88
;
G90
G0 X-35.989 Y-87.759
G1 Z-2.05 F5000.
G41 X-24.733 Y-71.227 F800.
G2 X-40. Y-53.104 I24.733 J36.327
G0 Y-16.696
G2 X-18.422 Y5. I40. J-18.204
G0 X18.422
G2 X40. Y-16.696 I-18.422 J-39.9
G0 Y-53.104
G2 X24.733 Y-71.227 I-40. J18.204
G40 G1 X35.989 Y-87.759
G0 Z2.5
Y-33.494 Z56.765
M9
CYCLE800()
G_BACK_TUNNEL
M5
M1

;
; OP10_ZAVIT M4
;
N18; ZAVITNIK TVARECI M4 PT00459
G17 G40 G94 G710
T18
M6
; G_TOOL_CHECK(125.,2.,3.,1.,4.)
T17
M1
G54 G90 S950 M3
CYCLE800(0,"TC_GROB",200000,54,0,0,0,90.,-135.,180.,0,0,0,1,0,0)
IF LADENI==0
VODA
ENDIF
G0 X-21.5 Y13.975
X-21.5 Y13.975 Z25.271 D1
M7
Z2.5
; RETRACTION PLANE RTP = 2.5
; REFERENCE PLANE RFP = 0
; SAFETY CLEARANCE SDIS = 2.5
; DRILLING DEPTH PLANE DP = -10.
; DWELL TIME AT BOTTOM DTB = 0
; CW SPINDLE DIRECTION AT TAPPING SDAC = 3
; THREAD PITCH PIT = +0.7
; SPINDLE ORIENT ANGLE POSS = 0
; SPINDLE SPEED TAPPING SST = 950
; SPINDLE SPEED RETRACTION SST1 = 950
MCALL CYCLE84(2.5,0,2.5,-10.,,0,3,,0.7,0,950,950,0,1,0,0,,0,,,,,1000,1001002)
X-21.5 Y13.975
X21.5
MCALL
G0 Z2.5
Z25.271
M9
CYCLE800()
G_BACK_TUNNEL
M5
M1

;
; OP10_ZAVIT M6 D66
;
N17; ZAVITNIK TVARECI M6 PT00462
G17 G40 G94 G710
T17
M6
; G_TOOL_CHECK(135.,3.,3.,1.,4.)
T7
M1
G54 G90 S1060 M3
CYCLE800(0,"TC_GROB",200000,54,-18.402,-18.402,0,90.,135.,-180.,0,0,0,1,0,0)
IF LADENI==0
VODA
ENDIF
G0 X-27. Y-24.064
X-27. Y-24.064 Z40.336 D1
M7
Y-61.9 Z2.5
; RETRACTION PLANE RTP = 2.5
; REFERENCE PLANE RFP = 0
; SAFETY CLEARANCE SDIS = 2.5
; DRILLING DEPTH PLANE DP = -16.
; DWELL TIME AT BOTTOM DTB = 0
; CW SPINDLE DIRECTION AT TAPPING SDAC = 3
; THREAD PITCH PIT = +1.
; SPINDLE ORIENT ANGLE POSS = 0
; SPINDLE SPEED TAPPING SST = 1060
; SPINDLE SPEED RETRACTION SST1 = 1060
MCALL CYCLE84(2.5,0,2.5,-16.,,0,3,,1.,0,1060,1060,0,1,0,0,,0,,,,,1000,1001002)
X-27. Y-61.9
Y-7.9
X27.
Y-61.9
MCALL
G0 Z2.5
Y-24.064 Z40.336
CYCLE800()
G_BACK_TUNNEL
;
; OP10_ZAVIT M6 U D35,5
;
G17 G54 G90
CYCLE800(0,"TC_GROB",200000,54,16.953,16.953,0,-90.,-135.,180.,0,0,0,1,0,0)
G0 X-27. Y-61.9
X-27. Y-61.9 Z78.171 D1
M7
Z2.5
; RETRACTION PLANE RTP = 2.5
; REFERENCE PLANE RFP = 0
; SAFETY CLEARANCE SDIS = 2.5
; DRILLING DEPTH PLANE DP = -16.
; DWELL TIME AT BOTTOM DTB = 0
; CW SPINDLE DIRECTION AT TAPPING SDAC = 3
; THREAD PITCH PIT = +1.
; SPINDLE ORIENT ANGLE POSS = 0
; SPINDLE SPEED TAPPING SST = 1060
; SPINDLE SPEED RETRACTION SST1 = 1060
MCALL CYCLE84(2.5,0,2.5,-16.,,0,3,,1.,0,1060,1060,0,1,0,0,,0,,,,,1000,1001002)
X-27. Y-61.9
Y-7.9
X27.
Y-61.9
MCALL
G0 Z2.5
Z78.171
CYCLE800()
G_BACK_TUNNEL
;
; OP10_ ZAVIT M6 NA BOKU
;
G17 G54 G90
CYCLE800(0,"TC_GROB",200000,54,-0.725,-0.725,-34.9,0,-180.,135.,0,0,0,1,0,0)
G0 X1. Y-8.
X1. Y-8. Z14.101 D1
M7
Z2.5
; RETRACTION PLANE RTP = 2.5
; REFERENCE PLANE RFP = 0
; SAFETY CLEARANCE SDIS = 2.5
; DRILLING DEPTH PLANE DP = -11.9
; DWELL TIME AT BOTTOM DTB = 0
; CW SPINDLE DIRECTION AT TAPPING SDAC = 3
; THREAD PITCH PIT = +1.
; SPINDLE ORIENT ANGLE POSS = 0
; SPINDLE SPEED TAPPING SST = 1060
; SPINDLE SPEED RETRACTION SST1 = 1060
MCALL CYCLE84(2.5,0,2.5,-11.9,,0,3,,1.,0,1060,1060,0,1,0,0,,0,,,,,1000,1001002)
X1. Y-8.
MCALL
G0 Z2.5
Z14.101
M9
CYCLE800()
G_BACK_TUNNEL
M5
M1

;
; OP10_FINISH OBVOD
;

N7; FREZA HM D20 PT00081
G17 G40 G94 G710
T7
M6
; G_TOOL_CHECK(160.,10.,3.,1.,4.)
T="TOUCH_PROBE"
M1
G54 G90 S800 M3
CYCLE800(0,"TC_GROB",200000,54,-18.402,-18.402,0,90.,135.,-180.,0,0,0,1,0,0)
IF LADENI==0
VODA
ENDIF
G0 X-67.95 Y-76.1
X-67.95 Y-76.1 Z2.5 D1
M8
M7

G1 Z-50.5 F3000.
G41 X-34.92 F300.
Y0.02
X34.92
Y-76.1
G40 X67.95
G0 Z25.
;
; OP10_FINISH OBVOD
;
G90
G0 X-67.9
Z2.5
G1 Z-50.5 F3000.
G41 X-34.9 F300.
Y0.
X34.9
Y-76.1
G40 X67.9
G0 Z25.
M9
CYCLE800()
G_BACK_TUNNEL
M5
M1

IF $P_SEARCH==1 GOTOF BEZ_SONDY
IF (DWI_PARTTYPE_WORKAREA==7) GOTOF BEZ_SONDY
;
; KAPSA 4 BODY
;
N39; SONDA
G17 G40 G94 G710
T="TOUCH_PROBE"
M6
; G_TOOL_CHECK(187.,3.,3.,1.,4.)
T3
M1
G54 G90
CYCLE800(0,"TC_GROB",200000,54,16.953,16.953,0,-90.,-135.,180.,0,0,0,1,0,0)
G0 X0. Y-34.9
X0. Y-34.9 Z49.414 D1
G0 Z20.

DIRA_MERENI(35.5,26,35.53,35.51,35.523,0.001,"SONDA_SG202066",8)
; voloitelne parametry a jejich vyznam:
; 1 = jmenovity prumer diry
; 2 = o kolik ma sonda sjet dolu z bezpecne vysky
; 3 = maximalni povoleny prumer diry
; 4 = minimalni povoleny prumer diry
; 5 = prumer pri jehoz dosazeni se ubere z korekce nastroje
; 6 = o kolik se ubere z korekce nastroje pri dosazeni prumeru 5
; 7 = nazev souboru, do ktereho se ma zapsat merena hodnota
; 8 = T cislo nastroje v programu

BEZ_SONDY:
CYCLE800()
G_BACK_TUNNEL
CYCLE832(0,_OFF,1)
SUPA Y=Y_HOMEPOS A=A_HOMEPOS B=B_HOMEPOS

;NCG#G_LST#g_lst.com#G_Reset_LST#*NCG;*RO*;*HD*
;#"57"#0#1#0#0#1#0#1#0##82#352#*NCG;*RO*;*HD*
G_LST_RESET
;#END#*NCG;*RO*;*HD*
M_CPL_1_RTB_RELEASE M_CPL_2_RTB_RELEASE M_CPL_3_RTB_RELEASE
M_CPL_4_RTB_RELEASE M_CPL_5_RTB_RELEASE M_CPL_6_RTB_RELEASE

IF(DWI_PARTTYPE_WORKAREA==1) GOTOF POCITADLO
M97
POCITADLO:


;NCG#G_LST#g_lst.com#G_Reset_LST#*NCG;*RO*;*HD*
;#"57"#0#1#0#0#1#0#1#0##82#352#*NCG;*RO*;*HD*
G_LST_RESET
;#END#*NCG;*RO*;*HD*

O_PROG_READY=1
_PROGRAMMOK:

M=QU(90) M=QU(92); VYPNUT ODSTAVANIE A DOPRAVNIK TRIESOK
M60; VYMENA PALETY
M31
M25

M30

SONDOVANI:

; G54
$P_UIFR[1]=CTRANS(X,-230.972,Y,280.255,Z,0) ; ZAPSANI TEOR. HODNOT DO NB

; G55
$P_UIFR[2]=CTRANS(X,219.977,Y,234.541,Z,3.9) ; ZAPSANI TEOR. HODNOT DO NB

;
; PERO VE SMERU OSY X
;
N39; SONDA
G17 G40 G94 G710
T="TOUCH_PROBE"
M6
; G_TOOL_CHECK(187.,3.,3.,1.,4.)
G54 G90
CYCLE800(0,"TC_GROB",200000,54,-18.402,-18.402,0,90.,135.,-180.,0,0,0,1,0,0)
M0
G0 X-0.001 Y-87.143
X-0.001 Y-87.143 Z101.657 D1
G0 Y-88.55 Z100.25
STOPRE
M38; PUSTIT SONDU
; MERENI PERA VE SMERU OSY X
G1 MEAS=1 Z30. F1000.
IF $AC_MEA[1]==1 GOTOF BOURACKA
ENDIF
CYCLE977(104,10001,,1,38,,,7,5,0,20,1,,1,1,"",,0,1.01,1.01,-1.01,0.34,1,0,,1,1)
G0 Z30.
Y-52.018 Z66.532
CYCLE800()
G_BACK_TUNNEL
;
; PERO VE SMERU OSY Y
;
G17 G54 G90
CYCLE800(0,"TC_GROB",200000,54,0,0,0,90.,-135.,180.,0,0,0,1,0,0)
M0
G0 X0. Y-1.025
X0. Y-1.025 Z38.271 D1
G0 Z36.2
STOPRE
M38; PUSTIT SONDU
; MERENI PERA VE SMERU OSY Y
G1 MEAS=1 Z10. F1000.
IF $AC_MEA[1]==1 GOTOF BOURACKA
ENDIF
CYCLE977(104,10001,,1,60,,,7,5,0,20,1,,2,1,"",,0,1.01,1.01,-1.01,0.34,1,0,,1,1)
G0 Z10.
;
; BOD Z
;
G90
G0 X0. Y-1.025
STOPRE
M38; PUSTIT SONDU
; MERENI BODU Z
CYCLE978(100,10001,,1,0.6,12,5,3,2,1,"",,0,1.01,1.01,-1.01,0.34,1,0,,1,1)
Z10.
Z38.271
CYCLE800()
G_BACK_TUNNEL
;
; BOD X+
;
G17 G55 G90
CYCLE800(0,"TC_GROB",200000,54,0,0,0,-90.,-135.,-180.,0,0,0,1,0,0)
M0
G0 X24.9 Y6.025
X24.9 Y6.025 Z39. D1
STOPRE
M38; PUSTIT SONDU
; MERENI BODU X+
G1 MEAS=1 Z-44.8 F1000.
IF $AC_MEA[1]==1 GOTOF BOURACKA
ENDIF
CYCLE978(100,10002,,1,34.9,10,5,1,1,1,"",,0,1.01,1.01,-1.01,0.34,1,0,,1,1)
G0 Z39.
;
; BOD Y-
;
G90
G0 X-22.35 Y-13.975
STOPRE
M38; PUSTIT SONDU
; MERENI BODU Y-
G1 MEAS=1 Z-50. F1000.
IF $AC_MEA[1]==1 GOTOF BOURACKA
ENDIF
CYCLE978(100,10002,,1,-23.9,10,5,2,2,1,"",,0,1.01,1.01,-1.01,0.34,1,0,,1,1)
G0 Z39.
;
; BOD Z
;
G90
G0 X-30. Y14.
STOPRE
M38; PUSTIT SONDU
; MERENI BODU Z
G1 MEAS=1 Z10. F1000.
IF $AC_MEA[1]==1 GOTOF BOURACKA
ENDIF
CYCLE978(100,10002,,1,-69.8,82,5,3,2,1,"",,0,1.01,1.01,-1.01,0.34,1,0,,1,1)
G0 Z10.
Z29.339
CYCLE800()
G_BACK_TUNNEL
SUPA X=X_HOMEPOS Y=Y_HOMEPOS A=A_HOMEPOS B=B_HOMEPOS
M30

BOURACKA:
LOOP
MSG("KOLIZE SONDY")
G4 F10
ENDLOOP
